**kern	**kern	**kern	**kern	**kern	**kern	**kern	**kern	**kern	**kern	**kern	**kern	**kern	**kern	**kern	**kern	**kern	**kern
*ITrd7c12	*	*	*	*	*	*ITrd-1c-2	*ITrd-1c-2	*ITrd6c10	*ITrd6c10	*	*	*ITrd2c3	*ITrd2c3	*	*	*	*
*	*Icello	*Iviola	*Ivioln	*Ivioln	*Itimpa	*	*	*	*	*Ifagot	*Ifagot	*	*	*Ioboe	*Ioboe	*Iflt	*Iflt
*Icbass	*I"Violoncello	*I"Viola	*I#2	*I#1	*I"Timpani	*Itromp	*Itromp	*Icor	*Icor	*I#2	*I#1	*Iclars	*Iclars	*I#2	*I#1	*I#2	*I#1
*I"Basso	*	*	*I"Violino II	*I"Violino I	*	*I#2	*I#1	*I#2	*I#1	*I"Fagotto 2	*I"Fagotto 1	*I#2	*I#1	*I"Oboe 2	*I"Oboe 1	*I"Flauto 2	*I"Flauto 1
*	*	*	*	*	*	*I"Tromba 2	*I"Tromba 1	*I"Corno 2	*I"Corno 1	*	*	*I"Clarinet 2	*I"Clarinet 1	*	*	*	*
*>[A,A,B,B,C,D,D]	*>[A,A,B,B,C,D,D]	*>[A,A,B,B,C,D,D]	*>[A,A,B,B,C,D,D]	*>[A,A,B,B,C,D,D]	*>[A,A,B,B,C,D,D]	*>[A,A,B,B,C,D,D]	*>[A,A,B,B,C,D,D]	*>[A,A,B,B,C,D,D]	*>[A,A,B,B,C,D,D]	*>[A,A,B,B,C,D,D]	*>[A,A,B,B,C,D,D]	*>[A,A,B,B,C,D,D]	*>[A,A,B,B,C,D,D]	*>[A,A,B,B,C,D,D]	*>[A,A,B,B,C,D,D]	*>[A,A,B,B,C,D,D]	*>[A,A,B,B,C,D,D]
*>norep[A,B,C,D]	*>norep[A,B,C,D]	*>norep[A,B,C,D]	*>norep[A,B,C,D]	*>norep[A,B,C,D]	*>norep[A,B,C,D]	*>norep[A,B,C,D]	*>norep[A,B,C,D]	*>norep[A,B,C,D]	*>norep[A,B,C,D]	*>norep[A,B,C,D]	*>norep[A,B,C,D]	*>norep[A,B,C,D]	*>norep[A,B,C,D]	*>norep[A,B,C,D]	*>norep[A,B,C,D]	*>norep[A,B,C,D]	*>norep[A,B,C,D]
=1	=1	=1	=1	=1	=1	=1	=1	=1	=1	=1	=1	=1	=1	=1	=1	=1	=1
*>A	*>A	*>A	*>A	*>A	*>A	*>A	*>A	*>A	*>A	*>A	*>A	*>A	*>A	*>A	*>A	*>A	*>A
*M3/4	*staff:1	*staff:2	*staff:3	*staff:4	*staff:5	*staff:6	*staff:6	*staff:7	*staff:7	*staff:8	*staff:8	*staff:9	*staff:9	*staff:10	*staff:10	*staff:11	*staff:11
*	*clefF4	*clefC3	*clefG2	*clefG2	*clefF4	*clefG2	*clefG2	*clefG2	*clefG2	*clefF4	*clefF4	*clefG2	*clefG2	*clefG2	*clefG2	*clefG2	*clefG2
*	*k[f#c#]	*k[f#c#]	*k[f#c#]	*k[f#c#]	*M3/4	*M3/4	*M3/4	*M3/4	*M3/4	*k[f#c#]	*k[f#c#]	*k[f#c#]	*k[f#c#]	*k[f#c#]	*k[f#c#]	*k[f#c#]	*k[f#c#]
*	*M3/4	*M3/4	*M3/4	*M3/4	*	*	*	*	*	*M3/4	*M3/4	*M3/4	*M3/4	*M3/4	*M3/4	*M3/4	*M3/4
4ryy	4r	4r	4a	4a	4r	4r	4r	4r	4r	4r	4r	4a	4a	4a	4a	4a	4a
=2	=2	=2	=2	=2	=2	=2	=2	=2	=2	=2	=2	=2	=2	=2	=2	=2	=2
*staff:1	*	*	*	*	*	*	*	*	*	*	*	*	*	*	*	*	*
*clefF4	*	*	*	*	*	*	*	*	*	*	*	*	*	*	*	*	*
*k[f#c#]	*	*	*	*	*	*	*	*	*	*	*	*	*	*	*	*	*
4DD'	4D'	4A'	4f#'	4dd'	4D	4dd'y	4ff#'	4d'y	4f#'	4D'	4D'	4f#'y	4dd'	4f#'	4dd'y	4dd'	4dd'
16ryy	4D'	4A'	4f#'	4dd'	4r	4dd'y	4ff#'	4d'y	4f#'	4D'	4D'	4f#'y	4dd'	4f#'	4dd'y	4dd'	4dd'
16ryy	.	.	.	.	.	.	.	.	.	.	.	.	.	.	.	.	.
16ryy	.	.	.	.	.	.	.	.	.	.	.	.	.	.	.	.	.
16ryy	.	.	.	.	.	.	.	.	.	.	.	.	.	.	.	.	.
16ryy	4E'	4A'	4g'	4cc#'	4r	4a'y	4ee'	4A'y	4e'	4E'	4E'	4e'y	4cc#'	4g'	4cc#'y	4cc#'	4cc#'
16ryy	.	.	.	.	.	.	.	.	.	.	.	.	.	.	.	.	.
16ryy	.	.	.	.	.	.	.	.	.	.	.	.	.	.	.	.	.
16ryy	.	.	.	.	.	.	.	.	.	.	.	.	.	.	.	.	.
!!WARNING: This measure contained too few data records
=3	=3	=3	=3	=3	=3	=3	=3	=3	=3	=3	=3	=3	=3	=3	=3	=3	=3
2.ryy	2C#z	2Az	2Az 2gz	2a 2ee	4AA	2a	2eez	2A	2ez	2C#z	2C#z	2g	2eez	2g	2eez	2eez	2eez
.	.	.	.	.	4r	.	.	.	.	.	.	.	.	.	.	.	.
.	4r	4r	4r	16dd	4r	4ryy	4r	4ryy	4r	4r	4r	4r	16dd	4r	16dd	16dd	16dd
.	.	.	.	16cc#	.	.	.	.	.	.	.	.	16cc#	.	16cc#	16cc#	16cc#
.	.	.	.	16b	.	.	.	.	.	.	.	.	16b	.	16b	16b	16b
.	.	.	.	16a	.	.	.	.	.	.	.	.	16a	.	16a	16a	16a
=4	=4	=4	=4	=4	=4	=4	=4	=4	=4	=4	=4	=4	=4	=4	=4	=4	=4
2.ryy	4d'	4A'	4a'	4ff#'	4D'	4dd'y	4ff#'	4d'y	4f#'	4d'	4d'	4dd'y	4ff#'	4a'y	4ff#'	4ff#'	4ff#'
.	4d'	4A'	4a'	4ff#'	4D'	4dd'y	4ff#'	4d'y	4f#'	4d'	4d'	4dd'y	4ff#'	4a'y	4ff#'	4ff#'	4ff#'
.	4c#'	4A'	4a'	4ee'	4AA'	4a'y	4ee'	4A'y	4e'	4c#'	4c#'	4cc#'y	4ee'	4a'y	4ee'	4ee'	4ee'
=5	=5	=5	=5	=5	=5	=5	=5	=5	=5	=5	=5	=5	=5	=5	=5	=5	=5
2.ryy	4e	4A	4c#	4gg	4AA	4a	4ee	4A	4e	4e	4e	4ee	4gg	4a	4gg	4gg	4gg
.	4r	4r	4r	4r	4r	4ryy	4r	4ryy	4r	4r	4r	4ryy	4r	4ryy	4r	4r	4r
.	4r	4F# 4A	4f#	4a	4r	4ryy	4r	4ryy	4r	4r	4r	4ryy	4r	4ryy	4r	16ryy	4a
.	.	.	.	.	.	.	.	.	.	.	.	.	.	.	.	16ryy	.
.	.	.	.	.	.	.	.	.	.	.	.	.	.	.	.	16ryy	.
.	.	.	.	.	.	.	.	.	.	.	.	.	.	.	.	16ryy	.
!!WARNING: This measure contained too few data records
=6	=6	=6	=6	=6	=6	=6	=6	=6	=6	=6	=6	=6	=6	=6	=6	=6	=6
2.ryy	2.r	4f# 4a	4ff#	4aa	2.r	2.r	2.r	2.r	2.r	2.r	2.r	2.r	2.r	2.r	2.r	2.ryy	4aa
.	.	4f#'y 4a'	4ff#'	4aa'	.	.	.	.	.	.	.	.	.	.	.	.	4aa'
.	.	4G 4B	4g	4b	.	.	.	.	.	.	.	.	.	.	.	.	4b
=7	=7	=7	=7	=7	=7	=7	=7	=7	=7	=7	=7	=7	=7	=7	=7	=7	=7
2.ryy	2.r	4g 4b	4gg	4bb	2.r	2.r	2.r	2.r	2.r	2.r	2.r	2.r	2.r	2.r	2.r	2.ryy	4bb
.	.	4g'y 4b'	4gg'	4bb'	.	.	.	.	.	.	.	.	.	.	.	.	4bb'
.	.	4f# 4a	4ff#	4aa	.	.	.	.	.	.	.	.	.	.	.	.	4aa
=8	=8	=8	=8	=8	=8	=8	=8	=8	=8	=8	=8	=8	=8	=8	=8	=8	=8
2.ryy	2.r	4e# [4g#	[4ee#	[4gg#	2.r	2.r	2.r	2.r	2.r	2.r	2.r	2.r	2.r	2.r	2.r	2.ryy	[4gg#
.	.	4en 4gn]	4een]	4ggn]	.	.	.	.	.	.	.	.	.	.	.	.	4ggn]
.	.	4d 4f#	4dd	4ff#	.	.	.	.	.	.	.	.	.	.	.	.	4ff#
=9	=9	=9	=9	=9	=9	=9	=9	=9	=9	=9	=9	=9	=9	=9	=9	=9	=9
2.ryy	2.r	4A 4e	4a	4ee	2.r	2.r	2.r	2.r	2.r	2.r	2.r	4ryy	4r	4ryy	4r	4a	4ee'
.	.	4r	4r	4r	.	.	.	.	.	.	.	4ryy	4r	4ryy	4r	16ryy	4r
.	.	.	.	.	.	.	.	.	.	.	.	.	.	.	.	16ryy	.
.	.	.	.	.	.	.	.	.	.	.	.	.	.	.	.	16ryy	.
.	.	.	.	.	.	.	.	.	.	.	.	.	.	.	.	16ryy	.
.	.	4r	4a	4a	.	.	.	.	.	.	.	4a	4a	4a	4a	16ryy	4a
.	.	.	.	.	.	.	.	.	.	.	.	.	.	.	.	16ryy	.
.	.	.	.	.	.	.	.	.	.	.	.	.	.	.	.	16ryy	.
.	.	.	.	.	.	.	.	.	.	.	.	.	.	.	.	16ryy	.
!!WARNING: This measure contained too few data records
=10	=10	=10	=10	=10	=10	=10	=10	=10	=10	=10	=10	=10	=10	=10	=10	=10	=10
2.ryy	4D'	4A'	4f#'	4dd'	4D	4dd'y	4ff#'	4d'y	4f#'	4D'	4D'	4f#'y	4dd'	4f#'	4dd'y	4dd'	4dd'
.	4D'	4A'	4f#'	4dd'	4r	4dd'y	4ff#'	4d'y	4f#'	4D'	4D'	4f#'y	4dd'	4f#'	4dd'y	4dd'	4dd'
.	4E'	4A'	4g'	4cc#'	4r	4a'y	4ee'	4A'y	4e'	4E'	4E'	4e'y	4cc#'	4g'	4cc#'y	4cc#'	4cc#'
=11	=11	=11	=11	=11	=11	=11	=11	=11	=11	=11	=11	=11	=11	=11	=11	=11	=11
2.ryy	2C#z	2Az	2Az 2gz	2a 2ee	4AA	2a	2eez	2A	2ez	2C#z	2C#z	4g	4eez	2g	2eez	2eez	2eez
.	.	.	.	.	4r	.	.	.	.	.	.	4ryy	4r	.	.	.	.
.	4r	4r	4r	16dd	4r	4ryy	4r	4ryy	4r	4r	4r	4a	4a	4r	16dd	16dd	16dd
.	.	.	.	16cc#	.	.	.	.	.	.	.	.	.	.	16cc#	16cc#	16cc#
.	.	.	.	16b	.	.	.	.	.	.	.	.	.	.	16b	16b	16b
.	.	.	.	16a	.	.	.	.	.	.	.	.	.	.	16a	16a	16a
=12	=12	=12	=12	=12	=12	=12	=12	=12	=12	=12	=12	=12	=12	=12	=12	=12	=12
2.ryy	4d'	4d'	4a'	4ff#'	4D	4dd	4ff#	4d	4f#	4d'	4d'	2.dd	4ff#'	2a	4ff#'	4ff#'	4ff#'
.	4d	4d	4a	4ff#	4D	4dd	4ff#	4d	4f#	4d	4d	.	4ff#	.	4ff#	4ff#	4ff#
.	4B	4B	4d	4gg#	4D	4dd	4dd	4d	4d	4B	4B	.	4gg#	4dd	4gg#	4gg#	4gg#
=13	=13	=13	=13	=13	=13	=13	=13	=13	=13	=13	=13	=13	=13	=13	=13	=13	=13
*	*staff:12	*staff:13	*staff:14	*staff:15	*staff:16	*staff:17	*staff:17	*staff:18	*staff:18	*staff:19	*staff:19	*staff:20	*staff:20	*staff:21	*staff:21	*staff:22	*staff:22
2.ryy	4c#'	4A'	4e	4aa'	4AA	2a	2ee	2A	2e	4c#'	4c#'	4cc#	4aa	4ee	4aa'	4aa'	4aa'
.	4c#	4A	2e	4aa	4r	.	.	.	.	4c#	4c#	4ryy	4r	2ee	4aa	4aa	4aa
.	4G#	4G#	.	4bb	4r	4ryy	4r	4ryy	4r	4G#	4G#	4ryy	4r	.	4bb	4bb	4bb
=14	=14	=14	=14	=14	=14	=14	=14	=14	=14	=14	=14	=14	=14	=14	=14	=14	=14
2.ryy	4A'	4A'	4e	4ccc#'	2.r	2.r	2.r	2.r	2.r	4A'	4A'	2.r	2.r	4ee	4ccc#'	4ccc#'	4ccc#'
.	4A	4A	2e	4ccc#	.	.	.	.	.	4A	4A	.	.	2ee	4ccc#	4ccc#	4ccc#
.	4B	4B	.	4ddd	.	.	.	.	.	4B	4B	.	.	.	4ddd	4ddd	4ddd
=15	=15	=15	=15	=15	=15	=15	=15	=15	=15	=15	=15	=15	=15	=15	=15	=15	=15
2.ryy	2c#	4c#	4e	8eee	2.r	4ryy	4r	4ryy	4r	2c#	2c#	2.r	2.r	4ee	8eee	8eee	8eee
.	.	.	.	8ddd	.	.	.	.	.	.	.	.	.	.	8ddd	8ddd	8ddd
.	.	4r	2e	8ccc#	.	4ryy	4r	4ryy	4r	.	.	.	.	2ee	8ccc#	8ccc#	8ccc#
.	.	.	.	8bb	.	.	.	.	.	.	.	.	.	.	8bb	8bb	8bb
.	4d	4b	.	8aa	.	4ee	4ee	4e	4e	4d	4d	.	.	.	8aa	8aa	8aa
.	.	.	.	8gg#	.	.	.	.	.	.	.	.	.	.	8gg#	8gg#	8gg#
=16	=16	=16	=16	=16	=16	=16	=16	=16	=16	=16	=16	=16	=16	=16	=16	=16	=16
2.ryy	2c#	4e	4e	8bb	4AA	2a	2ee	2A	2e	2c#	2c#	2.r	2.r	4ee	8bb	8bb	8bb
.	.	.	.	8aa	.	.	.	.	.	.	.	.	.	.	8aa	8aa	8aa
.	.	4r	2e	8gg#	4r	.	.	.	.	.	.	.	.	2ee	8gg#	8gg#	8gg#
.	.	.	.	8ff#	.	.	.	.	.	.	.	.	.	.	8ff#	8ff#	8ff#
.	4d	4b	.	8ee	4r	4ee	4ee	4e	4e	4d	4d	.	.	.	8ee	8ee	8ee
.	.	.	.	8gg#	.	.	.	.	.	.	.	.	.	.	8gg#	8gg#	8gg#
=17	=17	=17	=17	=17	=17	=17	=17	=17	=17	=17	=17	=17	=17	=17	=17	=17	=17
2.ryy	2c#	4e	4e	8bb	4AA	2a	2ee	2A	2e	2c#	2c#	2.r	2.r	4ee	8bb	8bb	8bb
.	.	.	.	8aa	.	.	.	.	.	.	.	.	.	.	8aa	8aa	8aa
.	.	4r	2e	8gg#	4r	.	.	.	.	.	.	.	.	2ee	8gg#	8gg#	8gg#
.	.	.	.	8ff#	.	.	.	.	.	.	.	.	.	.	8ff#	8ff#	8ff#
.	4d	4b	.	8ee	4r	4ee	4ee	4e	4e	4d	4d	.	.	.	8ee	8ee	8ee
.	.	.	.	8gg#	.	.	.	.	.	.	.	.	.	.	8gg#	8gg#	8gg#
=18	=18	=18	=18	=18	=18	=18	=18	=18	=18	=18	=18	=18	=18	=18	=18	=18	=18
2.ryy	2.c#	4e	4e	8bb	4AA	2.a	2.ee	2.A	2.e	2.c#	2.c#	2.r	2.r	4ee	8bb	8bb	8bb
.	.	.	.	8aa	.	.	.	.	.	.	.	.	.	.	8aa	8aa	8aa
.	.	4r	2e	8gg#	4r	.	.	.	.	.	.	.	.	2ee	8gg#	8gg#	8gg#
.	.	.	.	8ff#	.	.	.	.	.	.	.	.	.	.	8ff#	8ff#	8ff#
.	.	4c#	.	8ee	4r	.	.	.	.	.	.	.	.	.	8ee	8ee	8ee
.	.	.	.	8dd	.	.	.	.	.	.	.	.	.	.	8dd	8dd	8dd
=19	=19	=19	=19	=19	=19	=19	=19	=19	=19	=19	=19	=19	=19	=19	=19	=19	=19
2.ryy	2d	4d	2f#	8cc#	4D	2.dd	2.ff#	2.d	2.f#	2d	2d	2.r	2.r	2ff#	8cc#	8cc#	8cc#
.	.	.	.	8b	.	.	.	.	.	.	.	.	.	.	8b	8b	8b
.	.	4r	.	8ff#	4r	.	.	.	.	.	.	.	.	.	8ff#	8ff#	8ff#
.	.	.	.	8dd	.	.	.	.	.	.	.	.	.	.	8dd	8dd	8dd
.	4D	4d	8e	8cc#	4r	.	.	.	.	4D	4D	.	.	8ee	8cc#	8cc#	8cc#
.	.	.	8d	8b	.	.	.	.	.	.	.	.	.	8dd	8b	8b	8b
=20	=20	=20	=20	=20	=20	=20	=20	=20	=20	=20	=20	=20	=20	=20	=20	=20	=20
2.ryy	2E	4e	2c#	8a	2.r	2.ee	2.ee	2.e	2.e	2E	2E	2.r	2.r	2cc#	8a	8a	8a
.	.	.	.	8ee	.	.	.	.	.	.	.	.	.	.	8ee	8ee	8ee
.	.	4r	.	8cc#	.	.	.	.	.	.	.	.	.	.	8cc#	8cc#	8cc#
.	.	.	.	8a'	.	.	.	.	.	.	.	.	.	.	8a'	8a'	8a'
.	4E	4e	8d	8b	.	.	.	.	.	4E	4E	.	.	8dd	8b	8b	8b
.	.	.	8B	8g#	.	.	.	.	.	.	.	.	.	8b	8g#	8g#	8g#
=21	=21	=21	=21	=21	=21	=21	=21	=21	=21	=21	=21	=21	=21	=21	=21	=21	=21
2.ryy	4AA	4A	4c#	4a	4AA	4a	4ee	4A	4e	4AA	4AA	2.cc#	[2.eez	4cc#	4a	4a	4a
.	4r	4r	[2cc#z	[2eez	4r	4ryy	4r	4ryy	4r	4r	4r	.	.	2cc#	[2eez	[2ee	[2eez
.	4Az	4az	.	.	4r	4ryy	4r	4ryy	4r	4A	4A	.	.	.	.	.	.
=22	=22	=22	=22	=22	=22	=22	=22	=22	=22	=22	=22	=22	=22	=22	=22	=22	=22
2.ryy	4D	4d	4cc#]	4ee]	2.r	2.r	2.r	2.r	2.r	4D	4D	4cc#	4ee]	4cc#	4ee]	4ee]	4ee]
.	4r	4r	[2ddz	[2ff#z	.	.	.	.	.	4r	4r	2dd	[2ff#z	2dd	[2ff#z	[2ff#	[2ff#z
.	4BBz	4Bz	.	.	.	.	.	.	.	4BBz	4BBz	.	.	.	.	.	.
=23	=23	=23	=23	=23	=23	=23	=23	=23	=23	=23	=23	=23	=23	=23	=23	=23	=23
*	*staff:1	*staff:2	*staff:3	*staff:4	*staff:5	*staff:6	*staff:6	*staff:7	*staff:7	*staff:8	*staff:8	*staff:9	*staff:9	*staff:10	*staff:10	*staff:11	*staff:11
2.ryy	4E	4e	4dd]	4ff#]	2.r	2.r	2.r	2.r	2.r	4E	4E	4dd	4ff#]	4dd	4ff#]	4ff#]	4ff#]
.	4r	4r	8b	8gg#	.	.	.	.	.	4r	4r	8g#	8b	8b	8gg#	8gg#	8gg#
.	.	.	8cc#	8aa	.	.	.	.	.	.	.	8a	8cc#	8cc#	8aa	8aa	8aa
.	4E	4e	8dd	8bb	.	.	.	.	.	4E	4E	8b	8dd	8dd	8bb	8bb	8bb
.	.	.	8b	8gg#	.	.	.	.	.	.	.	8g#	8b	8b	8gg#	8gg#	8gg#
=24	=24	=24	=24	=24	=24	=24	=24	=24	=24	=24	=24	=24	=24	=24	=24	=24	=24
2.ryy	4A	4A	4cc#	4aa	2.r	2.r	2.r	2.r	2.r	4A	4A	4a	4cc#	4cc#	4aa	4aa	4aa
.	[2c#z	[2c#z	[2ez	4r	.	.	.	.	.	[2c#z	[2c#z	4ryy	4r	4ryy	4r	4r	4r
.	.	.	.	4az	.	.	.	.	.	.	.	4ryy	4r	4ryy	4r	4az	4az
=25	=25	=25	=25	=25	=25	=25	=25	=25	=25	=25	=25	=25	=25	=25	=25	=25	=25
2.ryy	4c#]	4c#]	4e]	2aa	2.r	2.r	2.r	2.r	2.r	4c#]	4c#]	2.r	2.r	2.r	2.r	2aa	2aa
.	[2dz	[2dz	[2f#z	.	.	.	.	.	.	[2dz	[2dz	.	.	.	.	.	.
.	.	.	.	4aa#z	.	.	.	.	.	.	.	.	.	.	.	4aa#'z	4aa#'z
=26	=26	=26	=26	=26	=26	=26	=26	=26	=26	=26	=26	=26	=26	=26	=26	=26	=26
2.ryy	4d]	4d]	4f#]	4bb'	2.r	4ryy	4r	4ryy	4r	4d]	4d]	2.r	2.r	4ryy	4r	4bb'	4bb'
.	4B'	4B'	4d'	4ddd'	.	4ryy	4r	4ryy	4r	4B'	4B'	.	.	4ryy	4r	4ddd'	4ddd'
.	4e'	4e'	4B'	4gg#'	.	4ee	4ee	4e	4e	4e'	4e'	.	.	4dd	4gg#	4gg#'	4gg#'
=27	=27	=27	=27	=27	=27	=27	=27	=27	=27	=27	=27	=27	=27	=27	=27	=27	=27
2.ryy	4A	4A	4c#	8aa	4AA	2a	2aa	2A	2a	4A	4A	4a	4cc#	4cc#	4aa	8aa	8aa
.	.	.	.	8gg#	.	.	.	.	.	.	.	.	.	.	.	8gg#	8gg#
.	4r	4r	4r	8aa	4r	.	.	.	.	4r	4r	4ryy	4r	4ryy	4r	8aa	8aa
.	.	.	.	8ee	.	.	.	.	.	.	.	.	.	.	.	8ee	8ee
.	4E	8g#	4e 4dd	8bb	4r	4ee	4ee	4e	4e	4E	4E	4b	4dd	4dd	4gg#	8bb	8bb
.	.	8b	.	8gg#	.	.	.	.	.	.	.	.	.	.	.	8gg#	8gg#
=28	=28	=28	=28	=28	=28	=28	=28	=28	=28	=28	=28	=28	=28	=28	=28	=28	=28
2.ryy	4A	4a	4e 4cc#	8aa	4AA	2a	2aa	2A	2a	4A	4A	4a	4cc#	4cc#	4aa	8aa	8aa
.	.	.	.	8gg#	.	.	.	.	.	.	.	.	.	.	.	8gg#	8gg#
.	4r	4r	4r	8aa	4r	.	.	.	.	4r	4r	4ryy	4r	4ryy	4r	8aa	8aa
.	.	.	.	8ee	.	.	.	.	.	.	.	.	.	.	.	8ee	8ee
.	4E	8g#	4e 4dd	8bb	4r	4ee	4ee	4e	4e	4E	4E	4b	4dd	4dd	4gg#	8bb	8bb
.	.	8b	.	8gg#	.	.	.	.	.	.	.	.	.	.	.	8gg#	8gg#
=29	=29	=29	=29	=29	=29	=29	=29	=29	=29	=29	=29	=29	=29	=29	=29	=29	=29
2ryy	4A	4a	4e 4cc#	4aa	4AA	4a	4aa	4A	4a	4A	4A	4a	4cc#	4cc#	4aa	4aa	4aa
.	4r	4r	4r	4r	4r	4ryy	4r	4ryy	4r	4r	4r	4ryy	4r	4ryy	4r	4r	4r
=30:||:	=30:||:	=30:||:	=30:||:	=30:||:	=30:||:	=30:||:	=30:||:	=30:||:	=30:||:	=30:||:	=30:||:	=30:||:	=30:||:	=30:||:	=30:||:	=30:||:	=30:||:
*>B	*>B	*>B	*>B	*>B	*>B	*>B	*>B	*>B	*>B	*>B	*>B	*>B	*>B	*>B	*>B	*>B	*>B
4ryy	4r	4r	4f#'	4a'	4r	4r	4r	4r	4r	4r	4r	4r	4r	4r	4r	4r	4r
=31	=31	=31	=31	=31	=31	=31	=31	=31	=31	=31	=31	=31	=31	=31	=31	=31	=31
2.ryy	2.r	2.r	4e#	4g#	4AA'	2.r	2.r	2.r	2.r	2.r	2.r	2.r	2.r	2.r	2.r	2.r	2.r
.	.	.	4en	4gn	4AA'	.	.	.	.	.	.	.	.	.	.	.	.
.	.	.	4d	4f#	4AA'	.	.	.	.	.	.	.	.	.	.	.	.
=32	=32	=32	=32	=32	=32	=32	=32	=32	=32	=32	=32	=32	=32	=32	=32	=32	=32
2.ryy	2.r	2.r	4A	4e	4AA	2.r	2.r	4ryy	4r	2.r	2.r	2.r	2.r	4ryy	4r	2.r	2.r
.	.	.	4r	4r	4r	.	.	4ryy	4r	.	.	.	.	4ryy	4r	.	.
.	.	.	4r	4r	4r	.	.	4d'y	4f#'	.	.	.	.	4dd'y	4ff#'	.	.
=33	=33	=33	=33	=33	=33	=33	=33	=33	=33	=33	=33	=33	=33	=33	=33	=33	=33
2.ryy	2.r	2.r	2.r	2.r	2.r	2.r	2.r	4f#	4a	2.r	2.r	2.A	2.a	4ff#	4aa	2.r	2.r
.	.	.	.	.	.	.	.	4e	4g	.	.	.	.	4ee	4gg	.	.
.	.	.	.	.	.	.	.	4A	4e	.	.	.	.	4cc#	4ee	.	.
=34	=34	=34	=34	=34	=34	=34	=34	=34	=34	=34	=34	=34	=34	=34	=34	=34	=34
2.ryy	2.r	2.r	4r	4r	2.r	2.r	2.r	4d	4f#	2.r	2.r	4d	4dd	4dd	4ff#	2.r	2.r
.	.	.	4r	4r	.	.	.	4ryy	4r	.	.	4ryy	4r	4ryy	4r	.	.
.	.	.	4b'	4dd'	.	.	.	4ryy	4r	.	.	4ryy	4r	4ryy	4r	.	.
=35	=35	=35	=35	=35	=35	=35	=35	=35	=35	=35	=35	=35	=35	=35	=35	=35	=35
2.ryy	2.r	2.r	4a#	4cc#	4D'	2.r	2.r	2.r	2.r	2.r	2.r	2.r	2.r	2.r	2.r	2.r	2.r
.	.	.	4an	4ccn	4D'	.	.	.	.	.	.	.	.	.	.	.	.
.	.	.	4g	4b	4D'	.	.	.	.	.	.	.	.	.	.	.	.
=36	=36	=36	=36	=36	=36	=36	=36	=36	=36	=36	=36	=36	=36	=36	=36	=36	=36
2.ryy	2.r	2.r	4f#	4a	4D	2.r	2.r	2.r	2.r	2.r	2.r	2.r	2.r	4ryy	4r	4r	4r
.	.	.	4r	4r	4r	.	.	.	.	.	.	.	.	4ryy	4r	4r	4r
.	.	.	4b	4bb	4r	.	.	.	.	.	.	.	.	4b	4bb	4bb	4bb
=37	=37	=37	=37	=37	=37	=37	=37	=37	=37	=37	=37	=37	=37	=37	=37	=37	=37
*	*staff:12	*staff:13	*staff:14	*staff:15	*	*	*	*	*	*staff:16	*staff:16	*staff:17	*staff:17	*staff:18	*staff:18	*staff:19	*staff:19
2.ryy	4r	4r	4dd	4ddd	2.ryy	2.ryy	2.ryy	2.ryy	2.ryy	4r	4r	2.r	2.r	4dd	4ddd	4ddd	4ddd
.	4r	4r	4ccn	4cccn	.	.	.	.	.	4r	4r	.	.	4ccn	4cccn	4cccn	4cccn
.	4d#	4d#	4b	4bb	.	.	.	.	.	4d#	4d#	.	.	4b	4bb	4bb	4bb
=38	=38	=38	=38	=38	=38	=38	=38	=38	=38	=38	=38	=38	=38	=38	=38	=38	=38
2.ryy	4f#	4f#	4a	4aa	2.ryy	2.ryy	2.ryy	2.ryy	2.ryy	4f#	4f#	2.r	2.r	4a	4aa	4aa	4aa
.	4e	4e	4g	4gg	.	.	.	.	.	4e	4e	.	.	4g	4gg	4gg	4gg
.	4dn	4dn	4b	4bb	.	.	.	.	.	4dn	4dn	.	.	4b	4bb	4bb	4bb
=39	=39	=39	=39	=39	=39	=39	=39	=39	=39	=39	=39	=39	=39	=39	=39	=39	=39
2.ryy	2c#	2c#	4b-	4bb-	2.ryy	2.ryy	2.ryy	2.ryy	2.ryy	2c#	2c#	2.r	2.r	4b-	4bb-X	4bb-	4bb-
.	.	.	4a	4aa	.	.	.	.	.	.	.	.	.	4a	4aa	4aa	4aa
.	4e	4e	4g	4gg	.	.	.	.	.	4e	4e	.	.	4g	4gg	4gg	4gg
=40	=40	=40	=40	=40	=40	=40	=40	=40	=40	=40	=40	=40	=40	=40	=40	=40	=40
2.ryy	4d	4d	2f#	2ff#	2.ryy	2.ryy	2.ryy	2.ryy	2.ryy	4d	4d	4ryy	4r	2f#	2ff#	2ff#	2ff#
.	4c#	4c#	.	.	.	.	.	.	.	4c#	4c#	4ryy	4r	.	.	.	.
.	4cn	4cn	4a	4aa	.	.	.	.	.	4cn	4cn	4a	4aa	4a	4aa	4aa	4aa
=41	=41	=41	=41	=41	=41	=41	=41	=41	=41	=41	=41	=41	=41	=41	=41	=41	=41
2.ryy	4B	4B	4g	4gg	2.ryy	2.ryy	2.ryy	2.ryy	2.ryy	4B	4B	4g	4gg	4g	4gg	4gg	4gg
.	4A	4A	4f#	4ff#	.	.	.	.	.	4A	4A	4f#	4ff#	4f#	4ff#	4ff#	4ff#
.	4G	4G	4e	4ee	.	.	.	.	.	4G	4G	4e	4ee	4ee	4ee	4ee	4ee
=42	=42	=42	=42	=42	=42	=42	=42	=42	=42	=42	=42	=42	=42	=42	=42	=42	=42
2.ryy	4F#	4F#	4d	4dd	2.ryy	2.ryy	2.ryy	2.ryy	2.ryy	4F#	4F#	4d	4dd	4dd	4dd	4dd	4dd
.	4E	4E	4c#	4cc#	.	.	.	.	.	4E	4E	4c#	4cc#	4cc#	4cc#	4cc#	4cc#
.	4D	4D	4d	4dd	.	.	.	.	.	4D	4D	4d	4dd	4dd	4dd	4dd	4dd
=43	=43	=43	=43	=43	=43	=43	=43	=43	=43	=43	=43	=43	=43	=43	=43	=43	=43
2.ryy	2C#X	4C#X	4A	4ee	2.ryy	2.ryy	2.ryy	2.ryy	2.ryy	2C#X	2C#X	4a	4ee	4a	4ee	4ee	4ee
.	.	4A	4e	4gg	.	.	.	.	.	.	.	4ee	4gg	4ee	4gg	4gg	4gg
.	4D	4A	4d	4ff#	.	.	.	.	.	4D	4D	4dd	4ff#	4dd	4ff#	4ff#	4ff#
=44	=44	=44	=44	=44	=44	=44	=44	=44	=44	=44	=44	=44	=44	=44	=44	=44	=44
2.ryy	4AA	[2.A	2c#	2ee	2.ryy	2.ryy	2.ryy	2.ryy	2.ryy	4AA	4AA	2cc#	2ee	2.cc#	2ee	2ee	2ee
.	4AA	.	.	.	.	.	.	.	.	4AA	4AA	.	.	.	.	.	.
.	4AA	.	4c# 4e	4aa	.	.	.	.	.	4AA	4AA	4cc#	4cc#	.	4aa	4aa	4aa
=45	=45	=45	=45	=45	=45	=45	=45	=45	=45	=45	=45	=45	=45	=45	=45	=45	=45
2.ryy	4AA	2.A_	2.B 2.d	8gg#	2.ryy	2.ryy	2.ryy	2.ryy	2.ryy	4AA	4AA	2.g#	2.dd	2.dd	2.gg#	8gg#	8gg#
.	.	.	.	8ff#	.	.	.	.	.	.	.	.	.	.	.	8ff#	8ff#
.	4AA	.	.	8ee	.	.	.	.	.	4AA	4AA	.	.	.	.	8ee	8ee
.	.	.	.	8dd'	.	.	.	.	.	.	.	.	.	.	.	8dd'	8dd'
.	4AA	.	.	8cc#'	.	.	.	.	.	4AA	4AA	.	.	.	.	8cc#'	8cc#'
.	.	.	.	8b'	.	.	.	.	.	.	.	.	.	.	.	8b'	8b'
=46	=46	=46	=46	=46	=46	=46	=46	=46	=46	=46	=46	=46	=46	=46	=46	=46	=46
2.ryy	4AA	2.A_	2.c# 2.e	8a'	2.ryy	2.ryy	2.ryy	2.ryy	2.ryy	4AA	4AA	2.a	2.cc#	2.cc#	2.aa	4a	4a
.	.	.	.	8ee'	.	.	.	.	.	.	.	.	.	.	.	.	.
.	4AA	.	.	8dd'	.	.	.	.	.	4AA	4AA	.	.	.	.	4r	4r
.	.	.	.	8cc#'	.	.	.	.	.	.	.	.	.	.	.	.	.
.	4AA	.	.	8b'	.	.	.	.	.	4AA	4AA	.	.	.	.	4aa	4aa
.	.	.	.	8a'	.	.	.	.	.	.	.	.	.	.	.	.	.
=47	=47	=47	=47	=47	=47	=47	=47	=47	=47	=47	=47	=47	=47	=47	=47	=47	=47
2.ryy	4AA	2.A_	2.B 2.d	8g#	2.ryy	2.ryy	2.ryy	2.ryy	2.ryy	4AA	4AA	2.g#	2.dd	2.dd	2.gg#	8gg#	8gg#
.	.	.	.	8f#	.	.	.	.	.	.	.	.	.	.	.	8ff#	8ff#
.	4AA	.	.	8e	.	.	.	.	.	4AA	4AA	.	.	.	.	8ee	8ee
.	.	.	.	8d'	.	.	.	.	.	.	.	.	.	.	.	8dd'	8dd'
.	4AA	.	.	8c#'	.	.	.	.	.	4AA	4AA	.	.	.	.	8cc#'	8cc#'
.	.	.	.	8B'	.	.	.	.	.	.	.	.	.	.	.	8b'	8b'
=48	=48	=48	=48	=48	=48	=48	=48	=48	=48	=48	=48	=48	=48	=48	=48	=48	=48
2.ryy	4AA	4A]	4c# 4e	8A	2.ryy	2.ryy	2.ryy	2.ryy	2.ryy	4AA	4AA	4a	4cc#	4cc#	4aa	4a	4a
.	.	.	.	8G#	.	.	.	.	.	.	.	.	.	.	.	.	.
.	4r	4r	4r	8A	.	.	.	.	.	4r	4r	4ryy	4r	4ryy	4r	4r	4r
.	.	.	.	8B	.	.	.	.	.	.	.	.	.	.	.	.	.
.	4r	4r	4r	8c#	.	.	.	.	.	4r	4r	4ryy	4r	4ryy	4r	4r	4r
.	.	.	.	8d	.	.	.	.	.	.	.	.	.	.	.	.	.
=49	=49	=49	=49	=49	=49	=49	=49	=49	=49	=49	=49	=49	=49	=49	=49	=49	=49
*	*staff:1	*staff:2	*staff:3	*staff:4	*	*	*	*	*	*staff:8	*staff:8	*staff:9	*staff:9	*staff:10	*staff:10	*staff:11	*staff:11
2.ryy	2.r	2.r	2.r	8e	2.r	2.r	2.r	2.r	2.r	2.r	2.r	2.r	2.r	2.r	2.r	2.r	2.r
.	.	.	.	8c#	.	.	.	.	.	.	.	.	.	.	.	.	.
.	.	.	.	8A	.	.	.	.	.	.	.	.	.	.	.	.	.
.	.	.	.	8B	.	.	.	.	.	.	.	.	.	.	.	.	.
.	.	.	.	8c#	.	.	.	.	.	.	.	.	.	.	.	.	.
.	.	.	.	8d	.	.	.	.	.	.	.	.	.	.	.	.	.
=50	=50	=50	=50	=50	=50	=50	=50	=50	=50	=50	=50	=50	=50	=50	=50	=50	=50
2.ryy	2.r	2.r	2.r	8e	2.r	2.r	2.r	2.r	2.r	2.r	2.r	2.r	2.r	2.r	2.r	2.r	2.r
.	.	.	.	8f#	.	.	.	.	.	.	.	.	.	.	.	.	.
.	.	.	.	8gn	.	.	.	.	.	.	.	.	.	.	.	.	.
.	.	.	.	8a	.	.	.	.	.	.	.	.	.	.	.	.	.
.	.	.	.	8b	.	.	.	.	.	.	.	.	.	.	.	.	.
.	.	.	.	8cc#	.	.	.	.	.	.	.	.	.	.	.	.	.
=51	=51	=51	=51	=51	=51	=51	=51	=51	=51	=51	=51	=51	=51	=51	=51	=51	=51
2.ryy	4D'	4A'	4f#'	4dd'	4D	4dd'y	4ff#'	4d'y	4f#'	4D'	4D'	4f#	4dd	4f#'	4dd'y	4dd'	4dd'
.	4D'	4A'	4f#'	4dd'	4D	4dd'y	4ff#'	4d'y	4f#'	4D'	4D'	4f#	4dd	4f#'	4dd'y	4dd'	4dd'
.	4E'	4A'	4g'	4cc#'	4AA	4a'y	4ee'	4A'y	4e'	4E'	4E'	4e	4cc#	4g'	4cc#'y	4cc#'	4cc#'
=52	=52	=52	=52	=52	=52	=52	=52	=52	=52	=52	=52	=52	=52	=52	=52	=52	=52
2.ryy	2C#z	2Az	2Az 2gz	2a 2ee	4AA	2a	2eez	2A	2ez	2C#z	2C#z	2g	2eez	2g	2eez	2eez	2eez
.	.	.	.	.	4r	.	.	.	.	.	.	.	.	.	.	.	.
.	4r	4r	4r	16dd	4r	4ryy	4r	4ryy	4r	4r	4r	4r	16dd	4r	16dd	16dd	16dd
.	.	.	.	16cc#	.	.	.	.	.	.	.	.	16cc#	.	16cc#	16cc#	16cc#
.	.	.	.	16b	.	.	.	.	.	.	.	.	16b	.	16b	16b	16b
.	.	.	.	16a	.	.	.	.	.	.	.	.	16a	.	16a	16a	16a
=53	=53	=53	=53	=53	=53	=53	=53	=53	=53	=53	=53	=53	=53	=53	=53	=53	=53
2.ryy	4d'	4A'	4a'	4ff#'	4D	4dd'y	4ff#'	4d'y	4f#'	4d'	4d'	4dd	4ff#	4a'y	4ff#'	4ff#'	4ff#'
.	4d'	4A'	4a'	4ff#'	4D	4dd'y	4ff#'	4d'y	4f#'	4d'	4d'	4dd	4ff#	4a'y	4ff#'	4ff#'	4ff#'
.	4c#'	4A'	4a'	4ee'	4AA	4a'y	4ee'	4A'y	4e'	4c#'	4c#'	4cc#	4ee	4a'y	4ee'	4ee'	4ee'
=54	=54	=54	=54	=54	=54	=54	=54	=54	=54	=54	=54	=54	=54	=54	=54	=54	=54
2.ryy	4e	4A	4c#	4gg	4AA	4a	4ee	4A	4e	4e	4e	4ee	4gg	4a	4gg	4gg	4gg
.	4r	4r	4r	4r	4r	4ryy	4r	4ryy	4r	4r	4r	4ryy	4r	4ryy	4r	4r	4r
.	4r	4F# 4A	4f#	4a	4r	4ryy	4r	4ryy	4r	4r	4r	4ryy	4r	4ryy	4r	16ryy	4a
.	.	.	.	.	.	.	.	.	.	.	.	.	.	.	.	16ryy	.
.	.	.	.	.	.	.	.	.	.	.	.	.	.	.	.	16ryy	.
.	.	.	.	.	.	.	.	.	.	.	.	.	.	.	.	16ryy	.
!!WARNING: This measure contained too few data records
=55	=55	=55	=55	=55	=55	=55	=55	=55	=55	=55	=55	=55	=55	=55	=55	=55	=55
2.ryy	2.r	4f# 4a	4ff#	4aa	2.r	2.r	2.r	2.r	2.r	2.r	2.r	2.r	2.r	2.r	2.r	2.ryy	4aa
.	.	4f#'y 4a'	4ff#'	4aa'	.	.	.	.	.	.	.	.	.	.	.	.	4aa'
.	.	4G 4B	4g	4b	.	.	.	.	.	.	.	.	.	.	.	.	4b
=56	=56	=56	=56	=56	=56	=56	=56	=56	=56	=56	=56	=56	=56	=56	=56	=56	=56
2.ryy	2.r	4g 4b	4gg	4bb	2.r	2.r	2.r	2.r	2.r	2.r	2.r	2.r	2.r	2.r	2.r	2.ryy	4bb
.	.	4g'y 4b'	4gg'	4bb'	.	.	.	.	.	.	.	.	.	.	.	.	4bb'
.	.	4f# 4a	4ff#	4aa	.	.	.	.	.	.	.	.	.	.	.	.	4aa
=57	=57	=57	=57	=57	=57	=57	=57	=57	=57	=57	=57	=57	=57	=57	=57	=57	=57
2.ryy	2.r	4e# 4g#	4ee#	4gg#	2.r	2.r	2.r	2.r	2.r	2.r	2.r	2.r	2.r	2.r	2.r	2.ryy	4gg#
.	.	4en 4gn	4een	4ggn	.	.	.	.	.	.	.	.	.	.	.	.	4ggn
.	.	4d 4f#	4dd	4ff#	.	.	.	.	.	.	.	.	.	.	.	.	4ff#
=58	=58	=58	=58	=58	=58	=58	=58	=58	=58	=58	=58	=58	=58	=58	=58	=58	=58
2.ryy	2.r	4A 4e	4cc#	4ee	2.r	2.r	2.r	2.r	2.r	2.r	2.r	2.r	2.r	2.r	2.r	4a	4ee
.	.	4r	4r	4r	.	.	.	.	.	.	.	.	.	.	.	16ryy	4r
.	.	.	.	.	.	.	.	.	.	.	.	.	.	.	.	16ryy	.
.	.	.	.	.	.	.	.	.	.	.	.	.	.	.	.	16ryy	.
.	.	.	.	.	.	.	.	.	.	.	.	.	.	.	.	16ryy	.
.	.	4r	4a	4a	.	.	.	.	.	.	.	.	.	.	.	16ryy	4a
.	.	.	.	.	.	.	.	.	.	.	.	.	.	.	.	16ryy	.
.	.	.	.	.	.	.	.	.	.	.	.	.	.	.	.	16ryy	.
.	.	.	.	.	.	.	.	.	.	.	.	.	.	.	.	16ryy	.
!!WARNING: This measure contained too few data records
=59	=59	=59	=59	=59	=59	=59	=59	=59	=59	=59	=59	=59	=59	=59	=59	=59	=59
2.ryy	4r	4r	4f#'	4dd'	2.r	2.r	2.r	2.r	2.r	2.r	2.r	2.r	2.r	2.r	2.r	4dd'	4dd'
.	4r	4r	4f#'	4dd'	.	.	.	.	.	.	.	.	.	.	.	4dd'	4dd'
.	4AA	4A	4e'	4cc#'	.	.	.	.	.	.	.	.	.	.	.	4cc#'	4cc#'
=60	=60	=60	=60	=60	=60	=60	=60	=60	=60	=60	=60	=60	=60	=60	=60	=60	=60
2.ryy	4A	4a	2g	2ee	2.r	2.r	2.r	2.r	2.r	2.r	2.r	2.r	2.r	2.r	2.r	2ee	2ee
.	4A'	4a'	.	.	.	.	.	.	.	.	.	.	.	.	.	.	.
.	4r	4r	4r	16dd	.	.	.	.	.	.	.	.	.	.	.	16dd	16dd
.	.	.	.	16cc#	.	.	.	.	.	.	.	.	.	.	.	16cc#	16cc#
.	.	.	.	16b	.	.	.	.	.	.	.	.	.	.	.	16b	16b
.	.	.	.	16a	.	.	.	.	.	.	.	.	.	.	.	16a	16a
=61	=61	=61	=61	=61	=61	=61	=61	=61	=61	=61	=61	=61	=61	=61	=61	=61	=61
*	*staff:12	*staff:13	*staff:14	*staff:15	*staff:16	*staff:17	*staff:17	*staff:18	*staff:18	*staff:19	*staff:19	*staff:20	*staff:20	*staff:21	*staff:21	*staff:22	*staff:22
2.ryy	2.r	2.r	4dd'	4ff#'	2.r	4r	4r	4r	4r	4r	4r	4ryy	4r	4r	4r	4ff#'	4ff#'
.	.	.	4dd'	4ff#'	.	4r	4r	4r	4r	4r	4r	4ryy	4r	4r	4r	4ff#'	4ff#'
.	.	.	4cc#'	4ee'	.	4a	4a	4A	4A	4AA	4AA	4A	4a	4a	4a	4ee'	4ee'
=62	=62	=62	=62	=62	=62	=62	=62	=62	=62	=62	=62	=62	=62	=62	=62	=62	=62
2.ryy	4r	4r	2ee	2gg	4r	4aa	4aa	4a	4a	4A	4A	4a	4aa	4aa	4aa	2gg	2gg
.	4r	4r	.	.	4r	4aa'	4aa'	4a'	4a'	4A'	4A'	4a'y	4aa'	4aa'	4aa'	.	.
.	4A	4A	16dd	16ff#	4AA	4r	4r	4r	4r	4r	4r	4ryy	4r	4r	4r	16ff#	16ff#
.	.	.	16cc#	16ee	.	.	.	.	.	.	.	.	.	.	.	16ee	16ee
.	.	.	16b	16dd	.	.	.	.	.	.	.	.	.	.	.	16dd	16dd
.	.	.	16a	16cc#	.	.	.	.	.	.	.	.	.	.	.	16cc#	16cc#
=63	=63	=63	=63	=63	=63	=63	=63	=63	=63	=63	=63	=63	=63	=63	=63	=63	=63
2.ryy	4d'	4d'	4ff#'	4aa'	4D	2.r	2.r	2.r	2.r	4r	4r	2.r	2.r	2.r	2.r	4aa'	4aa'
.	4d'	4d'	4ff#'	4aa'	4D	.	.	.	.	4r	4r	.	.	.	.	4aa'	4aa'
.	4c#'	4c#'	4ee'	4aa'	4AA	.	.	.	.	4A	4A	.	.	.	.	4aa'	4aa'
=64	=64	=64	=64	=64	=64	=64	=64	=64	=64	=64	=64	=64	=64	=64	=64	=64	=64
2.ryy	2e	2e	2gg	2.aa	4AA	2.r	2.r	2.r	2.r	2e	2e	2.r	2.r	4ryy	4r	2.aa	2.aa
.	.	.	.	.	4r	.	.	.	.	.	.	.	.	4ryy	4r	.	.
.	16d	16d	16ff#	.	4r	.	.	.	.	16d	16d	.	.	4a	4a	.	.
.	16c#	16c#	16ee	.	.	.	.	.	.	16c#	16c#	.	.	.	.	.	.
.	16B	16B	16dd	.	.	.	.	.	.	16B	16B	.	.	.	.	.	.
.	16A	16A	16cc#	.	.	.	.	.	.	16A	16A	.	.	.	.	.	.
=65	=65	=65	=65	=65	=65	=65	=65	=65	=65	=65	=65	=65	=65	=65	=65	=65	=65
2.ryy	4g'	4g'	4b'	4bb'	2.r	2.r	2.r	2.r	2.r	4g	4g	2.r	2.r	4b	4bb	4bb'	4bb'
.	4g'	4g'	4cc#'	4bb'	.	.	.	.	.	4g'	4g'	.	.	4cc#'y	4bb'	4bb'	4bb'
.	4f#	4f#	4dd	4aa	.	.	.	.	.	4f#	4f#	.	.	4dd	4aa	4aa	4aa
=66	=66	=66	=66	=66	=66	=66	=66	=66	=66	=66	=66	=66	=66	=66	=66	=66	=66
2.ryy	4e	2e	4dd	[4gg#	2.r	2.r	2.r	2.r	2.r	4e	4e	2.r	2.r	4dd	[4gg#	4gg#	[4gg#
.	4A	.	4cc#	4ggn]	.	.	.	.	.	4A	4A	.	.	4cc#	4ggn]	4ggn	4ggn]
.	4d	4f#	4dd	4ff#	.	.	.	.	.	4d	4d	.	.	4dd	4ff#	4ff#	4ff#
=67	=67	=67	=67	=67	=67	=67	=67	=67	=67	=67	=67	=67	=67	=67	=67	=67	=67
2.ryy	2G	2g	2b	8ee	2.r	2.r	2.r	2.r	2.r	2G	2G	2.r	2.r	2b	8ee	8ee	8ee
.	.	.	.	8ff#	.	.	.	.	.	.	.	.	.	.	8ff#	8ff#	8ff#
.	.	.	.	8gg	.	.	.	.	.	.	.	.	.	.	8gg	8gg	8gg
.	.	.	.	8aa	.	.	.	.	.	.	.	.	.	.	8aa	8aa	8aa
.	4E	4e	4g	8bb	.	.	.	.	.	4E	4E	.	.	4g	8bb	8bb	8bb
.	.	.	.	8ccc#	.	.	.	.	.	.	.	.	.	.	8ccc#	8ccc#	8ccc#
=68	=68	=68	=68	=68	=68	=68	=68	=68	=68	=68	=68	=68	=68	=68	=68	=68	=68
2.ryy	2F#	4A	2d 2a	8ddd	4D	4ryy	4r	4A	4a	2F#	2F#	4ryy	4r	4f#	4ddd	8ddd	8ddd
.	.	.	.	8ccc#	.	.	.	.	.	.	.	.	.	.	.	8ccc#	8ccc#
.	.	2A	.	8ddd	4r	4ryy	4r	2A	2a	.	.	4ryy	4r	4ryy	4r	8ddd	8ddd
.	.	.	.	8aa	.	.	.	.	.	.	.	.	.	.	.	8aa	8aa
.	4G	.	8cc#	8eee	4AA	4a	4ee	.	.	4G	4G	4a	4a	8cc#	4ccc#	8eee	8eee
.	.	.	8ee	8ccc#	.	.	.	.	.	.	.	.	.	8ee	.	8ccc#	8ccc#
=69	=69	=69	=69	=69	=69	=69	=69	=69	=69	=69	=69	=69	=69	=69	=69	=69	=69
2.ryy	2F#	4A	8dd	8ddd	4D	2dd	2ff#	4A	4a	2F#	2F#	4d	4dd	4ff#	4ddd	8ddd	8ddd
.	.	.	8cc#	8ccc#	.	.	.	.	.	.	.	.	.	.	.	8ccc#	8ccc#
.	.	2A	8dd	8ddd	4r	.	.	2A	2a	.	.	4d	4dd	4ryy	4r	8ddd	8ddd
.	.	.	8a	8aa	.	.	.	.	.	.	.	.	.	.	.	8aa	8aa
.	4G	.	8ee	8eee	4AA	4a	4ee	.	.	4G	4G	4a	4a	4ee	4ccc#	8eee	8eee
.	.	.	8cc#	8ccc#	.	.	.	.	.	.	.	.	.	.	.	8ccc#	8ccc#
=70	=70	=70	=70	=70	=70	=70	=70	=70	=70	=70	=70	=70	=70	=70	=70	=70	=70
2.ryy	2F#	4A	8dd	8ddd	4D	2dd	2ff#	4A	4a	2F#	2F#	4d	4dd	4ff#	4ddd	8ddd	8ddd
.	.	.	8cc#	8ccc#	.	.	.	.	.	.	.	.	.	.	.	8ccc#	8ccc#
.	.	2A	8dd	8ddd	4r	.	.	2A	2a	.	.	4d	4dd	4ryy	4r	8ddd	8ddd
.	.	.	8a	8aa	.	.	.	.	.	.	.	.	.	.	.	8aa	8aa
.	4G	.	8ee	8eee	4AA	4a	4ee	.	.	4G	4G	4a	4a	4ee	4ccc#	8eee	8eee
.	.	.	8cc#	8ccc#	.	.	.	.	.	.	.	.	.	.	.	8ccc#	8ccc#
=71	=71	=71	=71	=71	=71	=71	=71	=71	=71	=71	=71	=71	=71	=71	=71	=71	=71
2.ryy	2.F#	4A	8dd	8ddd	4D	4dd	4ff#	4A	4a	2.F#	2.F#	4d	4dd	4ff#	8ddd	8ddd	8ddd
.	.	.	8cc#	8ccc#	.	.	.	.	.	.	.	.	.	.	8ccc#	8ccc#	8ccc#
.	.	2A	8b	8bb	4r	4ryy	4r	4ryy	4r	.	.	4d	4dd	4r	8bb	8bb	8bb
.	.	.	8a	8aa	.	.	.	.	.	.	.	.	.	.	8aa	8aa	8aa
.	.	.	8g	8gg	4r	4ryy	4r	4ryy	4r	.	.	4a	4a	4a	8gg	8gg	8gg
.	.	.	8f#	8ff#	.	.	.	.	.	.	.	.	.	.	8ff#	8ff#	8ff#
=72	=72	=72	=72	=72	=72	=72	=72	=72	=72	=72	=72	=72	=72	=72	=72	=72	=72
*	*staff:1	*staff:2	*staff:3	*staff:4	*staff:5	*staff:6	*staff:6	*staff:7	*staff:7	*staff:8	*staff:8	*staff:9	*staff:9	*staff:10	*staff:10	*staff:11	*staff:11
2.ryy	2.G	4B	8e	8ee	2.r	2.r	2.r	2.r	2.r	2.G	2.G	4b	4b	4b	8ee	8ee	8ee
.	.	.	8d#	8dd#	.	.	.	.	.	.	.	.	.	.	8dd#	8dd#	8dd#
.	.	4B	8e	8ee	.	.	.	.	.	.	.	4ryy	4r	4r	8ee	8ee	8ee
.	.	.	8f#	8ff#	.	.	.	.	.	.	.	.	.	.	8ff#	8ff#	8ff#
.	.	8b	8g	8gg	.	.	.	.	.	.	.	4ryy	4r	8b	8gg	8gg	8gg
.	.	8g	8b	8bb	.	.	.	.	.	.	.	.	.	8g	8bb	8bb	8bb
=73	=73	=73	=73	=73	=73	=73	=73	=73	=73	=73	=73	=73	=73	=73	=73	=73	=73
2.ryy	2A	2f#	4a	8aa	4AA	2dd	2ff#	2d	2f#	2A	2A	2f#	2a	2f#	8aa	8aa	8aa
.	.	.	.	8ff#	.	.	.	.	.	.	.	.	.	.	8ff#	8ff#	8ff#
.	.	.	8f#	8ddn	2AA	.	.	.	.	.	.	.	.	.	8ddn	8ddn	8ddn
.	.	.	8a	8ff#	.	.	.	.	.	.	.	.	.	.	8ff#	8ff#	8ff#
.	4AA	4g	8g	8ee	.	4a	4ee	4A	4e	4AA	4AA	4e	4cc#	4g	8ee	8ee	8ee
.	.	.	8e	8cc#	.	.	.	.	.	.	.	.	.	.	8cc#	8cc#	8cc#
=74	=74	=74	=74	=74	=74	=74	=74	=74	=74	=74	=74	=74	=74	=74	=74	=74	=74
2.ryy	4D	4f#	4d	4dd	4D	4f#	4dd	4F#	4d	4D	4D	4f#	4dd	4f#	4dd	4dd	4dd
.	4r	4r	[2ff#z	[2aaz	4r	4ryy	4r	4ryy	4r	4r	4r	2f#	[2az	2ff#	[2aaz	[2aaz	[2aaz
.	4dz	4ddz	.	.	4r	4ryy	4r	4ryy	4r	4dz	4dz	.	.	.	.	.	.
=75	=75	=75	=75	=75	=75	=75	=75	=75	=75	=75	=75	=75	=75	=75	=75	=75	=75
2.ryy	4G	4g	4ff#]	4aa]	2.r	2.r	2.r	2.r	2.r	4G	4G	4f#	4a]	4ff#	4aa]	4aa]	4aa]
.	4r	4r	[2ggz	[2bbz	.	.	.	.	.	4r	4r	2g	[2bz	2gg	[2bbz	[2bbz	[2bbz
.	4Ez	4ez	.	.	.	.	.	.	.	4Ez	4Ez	.	.	.	.	.	.
=76	=76	=76	=76	=76	=76	=76	=76	=76	=76	=76	=76	=76	=76	=76	=76	=76	=76
2.ryy	4A	4a	4gg]	4bb]	2.r	2.r	2.r	2.r	2.r	4A	4A	4g	4b]	4gg	4bb]	4bb]	4bb]
.	4r	4r	8g	8cc#	.	.	.	.	.	4r	4r	8e	8cc#	4g	8cc#	8cc#	8cc#
.	.	.	8f#	8dd	.	.	.	.	.	.	.	8f#	8dd	.	8dd	8dd	8dd
.	4AA	4A	8e	8ee	.	.	.	.	.	4AA	4AA	8g	8ee	4g	8ee	8ee	8ee
.	.	.	8g	8cc#	.	.	.	.	.	.	.	8e	8cc#	.	8cc#	8cc#	8cc#
=77	=77	=77	=77	=77	=77	=77	=77	=77	=77	=77	=77	=77	=77	=77	=77	=77	=77
2.ryy	4D	4d	4f#	4dd	2.r	4ryy	4r	4ryy	4r	4D	4D	4f#	4dd	4f#	4dd	4dd	4dd
.	[2F#z	[2f#z	[2az	4r	.	2ff#	[2aaz	2f#	[2az	[2F#z	[2F#z	4ryy	4r	[2az	4r	4r	4r
.	.	.	.	4dddz	.	.	.	.	.	.	.	4ryy	4r	.	4dddz	4dddz	4dddz
=78	=78	=78	=78	=78	=78	=78	=78	=78	=78	=78	=78	=78	=78	=78	=78	=78	=78
2.ryy	4F#]	4f#]	4a]	4ee	2.r	4ff#	4aa]	4f#	4a]	4F#]	4F#]	2.r	2.r	4a]	4ee	4ee	4ee
.	[2Gz	[2gz	[2bz	4r	.	2gg	2bbz	2g	2bz	[2Gz	[2Gz	.	.	[2bz	4r	4r	4r
.	.	.	.	4bbz	.	.	.	.	.	.	.	.	.	.	4bbz	4bbz	4bbz
=79	=79	=79	=79	=79	=79	=79	=79	=79	=79	=79	=79	=79	=79	=79	=79	=79	=79
2.ryy	4G]	4g]	4b]	4b	4r	4ryy	4r	4ryy	4r	4G]	4G]	4ryy	4r	4b]	4b	4b	4b
.	4E	4e	4g	8cc#	4r	4ryy	4r	4ryy	4r	4E	4E	4ryy	4r	4g	8cc#	8cc#	8cc#
.	.	.	.	8dd	.	.	.	.	.	.	.	.	.	.	8dd	8dd	8dd
.	4AA	8c#	4g	8ee	4AA	4a	4ee	4A	4e	4AA	4AA	4e	4cc#	4g	8ee	8ee	8ee
.	.	8e	.	8cc#	.	.	.	.	.	.	.	.	.	.	8cc#	8cc#	8cc#
=80	=80	=80	=80	=80	=80	=80	=80	=80	=80	=80	=80	=80	=80	=80	=80	=80	=80
2.ryy	4D	4d	4f#	8dd	4D	4dd	4ff#	4d	4f#	4D	4D	4f#	4dd	4f#	8dd	4dd	4dd
.	.	.	.	8cc#	.	.	.	.	.	.	.	.	.	.	8cc#	.	.
.	4r	4r	4r	8dd	4r	4ryy	4r	4ryy	4r	4r	4r	4ryy	4r	4r	8dd	4r	4r
.	.	.	.	8a'	.	.	.	.	.	.	.	.	.	.	8a'	.	.
.	4AA	8c#	4A 4g	8ee	4AA	4a	4ee	4A	4e	4AA	4AA	4e	4cc#	4g	8ee	4ccc#	4ccc#
.	.	8e	.	8cc#	.	.	.	.	.	.	.	.	.	.	8cc#	.	.
=81	=81	=81	=81	=81	=81	=81	=81	=81	=81	=81	=81	=81	=81	=81	=81	=81	=81
2.ryy	4D	4d	4A 4f#	8dd	4D	4dd	4ff#	4d	4f#	4D	4D	4f#	4dd	4f#	8dd	4ddd	4ddd
.	.	.	.	8cc#	.	.	.	.	.	.	.	.	.	.	8cc#	.	.
.	4r	4r	4r	8dd	4r	4ryy	4r	4ryy	4r	4r	4r	4ryy	4r	4r	8dd	4r	4r
.	.	.	.	8a'	.	.	.	.	.	.	.	.	.	.	8a'	.	.
.	4AA	8c#	4A 4g	8ee	4AA	4a	4ee	4A	4e	4AA	4AA	4e	4cc#	4g	8ee	4ccc#	4ccc#
.	.	8e	.	8cc#	.	.	.	.	.	.	.	.	.	.	8cc#	.	.
=82	=82	=82	=82	=82	=82	=82	=82	=82	=82	=82	=82	=82	=82	=82	=82	=82	=82
2ryy	4D	4d	4A 4f#	4dd	4D	4f#	4dd	4d	4f#	4D	4D	4f#	4dd	4f#	4dd	4ddd	4ddd
.	4r	4r	4r	4r	4r	4ryy	4r	4ryy	4r	4r	4r	4ryy	4r	4ryy	4r	4r	4r
=83:|	=83:|	=83:|	=83:|	=83:|	=83:|	=83:|	=83:|	=83:|	=83:|	=83:|	=83:|	=83:|	=83:|	=83:|	=83:|	=83:|	=83:|
*>C	*>C	*>C	*>C	*>C	*>C	*>C	*>C	*>C	*>C	*>C	*>C	*>C	*>C	*>C	*>C	*>C	*>C
4ryy	4D	4d	4A	4f#	4r	4r	4r	4r	4r	4r	4r	4r	4r	4r	4r	4r	4r
=84	=84	=84	=84	=84	=84	=84	=84	=84	=84	=84	=84	=84	=84	=84	=84	=84	=84
2.ryy	2D	2d	2A	2f#	2.r	2.r	2.r	2.r	2.r	2.r	2.r	2.r	2.r	2.r	2.r	2.r	2.r
.	4D	4d	4A	4f#	.	.	.	.	.	.	.	.	.	.	.	.	.
=85	=85	=85	=85	=85	=85	=85	=85	=85	=85	=85	=85	=85	=85	=85	=85	=85	=85
*	*staff:12	*staff:13	*staff:14	*staff:15	*	*	*	*	*	*	*	*	*	*	*	*staff:16	*staff:16
2.ryy	2D	2d	2A	2f#	2.ryy	2.ryy	2.ryy	2.ryy	2.ryy	2.ryy	2.ryy	2.ryy	2.ryy	2.ryy	2.ryy	2.r	2.r
.	4D	4d	4A	4f#	.	.	.	.	.	.	.	.	.	.	.	.	.
=86	=86	=86	=86	=86	=86	=86	=86	=86	=86	=86	=86	=86	=86	=86	=86	=86	=86
2.ryy	2D	2d	2A	2f#	2.ryy	2.ryy	2.ryy	2.ryy	2.ryy	2.ryy	2.ryy	2.ryy	2.ryy	2.ryy	2.ryy	2.r	2.r
.	4D	4d	4A	4f#	.	.	.	.	.	.	.	.	.	.	.	.	.
=87	=87	=87	=87	=87	=87	=87	=87	=87	=87	=87	=87	=87	=87	=87	=87	=87	=87
2.ryy	2D	2d	2A	2f#	2.ryy	2.ryy	2.ryy	2.ryy	2.ryy	2.ryy	2.ryy	2.ryy	2.ryy	2.ryy	2.ryy	2.ryy	4r
.	.	.	.	.	.	.	.	.	.	.	.	.	.	.	.	.	4r
.	4D	4d	4A	4f#	.	.	.	.	.	.	.	.	.	.	.	.	8dd
.	.	.	.	.	.	.	.	.	.	.	.	.	.	.	.	.	8ee
=88	=88	=88	=88	=88	=88	=88	=88	=88	=88	=88	=88	=88	=88	=88	=88	=88	=88
2.ryy	2D	2d	2A	2f#	2.ryy	2.ryy	2.ryy	2.ryy	2.ryy	2.ryy	2.ryy	2.ryy	2.ryy	2.ryy	2.ryy	2.ryy	8ff#
.	.	.	.	.	.	.	.	.	.	.	.	.	.	.	.	.	8gg
.	.	.	.	.	.	.	.	.	.	.	.	.	.	.	.	.	8aa
.	.	.	.	.	.	.	.	.	.	.	.	.	.	.	.	.	8bb
.	4D	4d	4A	4f#	.	.	.	.	.	.	.	.	.	.	.	.	8ccc#
.	.	.	.	.	.	.	.	.	.	.	.	.	.	.	.	.	8ddd
=89	=89	=89	=89	=89	=89	=89	=89	=89	=89	=89	=89	=89	=89	=89	=89	=89	=89
2.ryy	2D	2e	2c#	2g	2.ryy	2.ryy	2.ryy	2.ryy	2.ryy	2.ryy	2.ryy	2.ryy	2.ryy	2.ryy	2.ryy	2.ryy	4eee'
.	.	.	.	.	.	.	.	.	.	.	.	.	.	.	.	.	4eee'
.	4D	4e	4c#	4g	.	.	.	.	.	.	.	.	.	.	.	.	4eee'
=90	=90	=90	=90	=90	=90	=90	=90	=90	=90	=90	=90	=90	=90	=90	=90	=90	=90
2.ryy	2D	2e	2c#	2g	2.ryy	2.ryy	2.ryy	2.ryy	2.ryy	2.ryy	2.ryy	2.ryy	2.ryy	2.ryy	2.ryy	2.ryy	4eee'
.	.	.	.	.	.	.	.	.	.	.	.	.	.	.	.	.	8ddd
.	.	.	.	.	.	.	.	.	.	.	.	.	.	.	.	.	8ccc#
.	4D	4e	4c#	4g	.	.	.	.	.	.	.	.	.	.	.	.	8bb
.	.	.	.	.	.	.	.	.	.	.	.	.	.	.	.	.	8aa
=91	=91	=91	=91	=91	=91	=91	=91	=91	=91	=91	=91	=91	=91	=91	=91	=91	=91
2.ryy	2D	2A	2d	2f#	2.ryy	2.ryy	2.ryy	2.ryy	2.ryy	2.ryy	2.ryy	2.ryy	2.ryy	2.ryy	2.ryy	2.ryy	4ddd
.	.	.	.	.	.	.	.	.	.	.	.	.	.	.	.	.	8ccc#
.	.	.	.	.	.	.	.	.	.	.	.	.	.	.	.	.	8bb
.	4D	4d	4A	4f#	.	.	.	.	.	.	.	.	.	.	.	.	8aa
.	.	.	.	.	.	.	.	.	.	.	.	.	.	.	.	.	8gg
=92	=92	=92	=92	=92	=92	=92	=92	=92	=92	=92	=92	=92	=92	=92	=92	=92	=92
2.ryy	2D	2d	2A	2f#	2.ryy	2.ryy	2.ryy	2.ryy	2.ryy	2.ryy	2.ryy	2.ryy	2.ryy	2.ryy	2.ryy	2.ryy	8ff#
.	.	.	.	.	.	.	.	.	.	.	.	.	.	.	.	.	8bb
.	.	.	.	.	.	.	.	.	.	.	.	.	.	.	.	.	8aa
.	.	.	.	.	.	.	.	.	.	.	.	.	.	.	.	.	8gg
.	4D	4d	4A	4f#	.	.	.	.	.	.	.	.	.	.	.	.	8ff#
.	.	.	.	.	.	.	.	.	.	.	.	.	.	.	.	.	8ee
=93	=93	=93	=93	=93	=93	=93	=93	=93	=93	=93	=93	=93	=93	=93	=93	=93	=93
2.ryy	2D	2d	2A	2f#	2.ryy	2.ryy	2.ryy	2.ryy	2.ryy	2.ryy	2.ryy	2.ryy	2.ryy	2.ryy	2.ryy	2.ryy	8dd
.	.	.	.	.	.	.	.	.	.	.	.	.	.	.	.	.	8ff#
.	.	.	.	.	.	.	.	.	.	.	.	.	.	.	.	.	8ee
.	.	.	.	.	.	.	.	.	.	.	.	.	.	.	.	.	8dd
.	4D	4d	4A	4f#	.	.	.	.	.	.	.	.	.	.	.	.	8cc#
.	.	.	.	.	.	.	.	.	.	.	.	.	.	.	.	.	8b
=94	=94	=94	=94	=94	=94	=94	=94	=94	=94	=94	=94	=94	=94	=94	=94	=94	=94
2.ryy	2D	2d	2f#	2a	2.ryy	2.ryy	2.ryy	2.ryy	2.ryy	2.ryy	2.ryy	2.ryy	2.ryy	2.ryy	2.ryy	2.ryy	2a
.	4D	4d	4f#	4a	.	.	.	.	.	.	.	.	.	.	.	.	4a
=95	=95	=95	=95	=95	=95	=95	=95	=95	=95	=95	=95	=95	=95	=95	=95	=95	=95
2.ryy	2D	2d	2f#	2a	2.ryy	2.ryy	2.ryy	2.ryy	2.ryy	2.ryy	2.ryy	2.ryy	2.ryy	2.ryy	2.ryy	2.ryy	2a
.	4D	4d	4f#	4a	.	.	.	.	.	.	.	.	.	.	.	.	4a
=96	=96	=96	=96	=96	=96	=96	=96	=96	=96	=96	=96	=96	=96	=96	=96	=96	=96
*	*staff:1	*staff:2	*staff:3	*staff:4	*	*	*	*	*	*	*	*	*	*	*	*staff:11	*staff:11
2.ryy	2D#	2f#	2cn	2a	4AA	2a	2aa	2f#	2a	2f#	2f#	2.a	2.ff#	2aa	2ccn	2a	2a
.	.	.	.	.	4r	.	.	.	.	.	.	.	.	.	.	.	.
.	4D#	4f#	4c	4a	4r	4a	4aa	4f#	4a	4f#	4f#	.	.	4aa	4cc	4a	4a
=97	=97	=97	=97	=97	=97	=97	=97	=97	=97	=97	=97	=97	=97	=97	=97	=97	=97
2.ryy	2E	2e	4c#X	4a	2.r	2ee	2ee	2e	2e	2e	2e	4a	4cc#	4aa	4cc#X	4a	4a
.	.	.	4d	4b	.	.	.	.	.	.	.	4b	4dd	4bb	4dd	4b	4b
.	4E	4e	4B	4g#	.	4ee	4ee	4e	4e	4e	4e	4g#	4b	4gg#	4b	4g#	4g#
=98	=98	=98	=98	=98	=98	=98	=98	=98	=98	=98	=98	=98	=98	=98	=98	=98	=98
2.ryy	2AA	2A	2c#	8a	4AA	2ee	2aa	2A	2e	2A	2A	8a	8a	8aa	4cc#	8a	8a
.	.	.	.	8cc#	.	.	.	.	.	.	.	8c#	8cc#	8cc#	.	8cc#	8cc#
.	.	.	.	8dd	4r	.	.	.	.	.	.	8d	8dd	8dd	8dd	8dd	8dd
.	.	.	.	8ee	.	.	.	.	.	.	.	8e	8ee	8ee	8ee	8ee	8ee
.	4AA	4A	4c#	8ff#	4AA	4ee	4aa	4A	4e	4A	4A	8f#	8ff#	8ff#	8ff#	8ff#	8ff#
.	.	.	.	8gg#	.	.	.	.	.	.	.	8g#	8gg#	8gg#	8gg#	8gg#	8gg#
=99	=99	=99	=99	=99	=99	=99	=99	=99	=99	=99	=99	=99	=99	=99	=99	=99	=99
2.ryy	4AA	4A	4c#	4aa	4AA	4ee	4aa	4A	4e	4A	4A	4a	4aa	4aa	4aa	4aa	4aa
.	4r	4r	4r	4r	4r	4ryy	4r	4ryy	4r	4r	4r	4ryy	4r	4ryy	4r	4r	4r
.	4D	4d	4A	4f#	4r	4ryy	4r	4ryy	4r	4r	4r	4ryy	4r	4ryy	4r	4r	4r
=100	=100	=100	=100	=100	=100	=100	=100	=100	=100	=100	=100	=100	=100	=100	=100	=100	=100
2.ryy	2D	2d	2A	2f#	2.r	2.r	2.r	2.r	2.r	2.r	2.r	2.r	2.r	2.r	2.r	2.r	2.r
.	4D	4d	4A	4f#	.	.	.	.	.	.	.	.	.	.	.	.	.
=101	=101	=101	=101	=101	=101	=101	=101	=101	=101	=101	=101	=101	=101	=101	=101	=101	=101
2.ryy	2D	2d	2A	2f#	2.r	2.r	2.r	2.r	2.r	2.r	2.r	2.r	2.r	2.r	2.r	2.r	2.r
.	4D	4d	4A	4f#	.	.	.	.	.	.	.	.	.	.	.	.	.
=102	=102	=102	=102	=102	=102	=102	=102	=102	=102	=102	=102	=102	=102	=102	=102	=102	=102
2.ryy	2D	2d	2A	2f#	2.r	2.r	2.r	2.r	2.r	2.r	2.r	2.r	2.r	2.r	2.r	2.r	2.r
.	4D	4d	4A	4f#	.	.	.	.	.	.	.	.	.	.	.	.	.
=103	=103	=103	=103	=103	=103	=103	=103	=103	=103	=103	=103	=103	=103	=103	=103	=103	=103
2.ryy	2D	2d	2A	2f#	2.r	2.r	2.r	2.r	2.r	2.r	2.r	2.r	2.r	2.r	2.r	2.ryy	4r
.	.	.	.	.	.	.	.	.	.	.	.	.	.	.	.	.	4r
.	4D	4d	4A	4f#	.	.	.	.	.	.	.	.	.	.	.	.	8dd
.	.	.	.	.	.	.	.	.	.	.	.	.	.	.	.	.	8ee
=104	=104	=104	=104	=104	=104	=104	=104	=104	=104	=104	=104	=104	=104	=104	=104	=104	=104
2.ryy	2D	2d	2A	2f#	2.r	2.r	2.r	2.r	2.r	2.r	2.r	2.r	2.r	2.r	2.r	2.ryy	8ff#
.	.	.	.	.	.	.	.	.	.	.	.	.	.	.	.	.	8gg
.	.	.	.	.	.	.	.	.	.	.	.	.	.	.	.	.	8aa
.	.	.	.	.	.	.	.	.	.	.	.	.	.	.	.	.	8bb
.	4D	4d	4A	4f#	.	.	.	.	.	.	.	.	.	.	.	.	8ccc#
.	.	.	.	.	.	.	.	.	.	.	.	.	.	.	.	.	8ddd
=105	=105	=105	=105	=105	=105	=105	=105	=105	=105	=105	=105	=105	=105	=105	=105	=105	=105
2.ryy	2D	2e	2c#	2g	2.r	2.r	2.r	2.r	2.r	2.r	2.r	2.r	2.r	2.r	2.r	2.ryy	4eee'
.	.	.	.	.	.	.	.	.	.	.	.	.	.	.	.	.	4eee'
.	4D	4e	4c#	4g	.	.	.	.	.	.	.	.	.	.	.	.	4eee'
=106	=106	=106	=106	=106	=106	=106	=106	=106	=106	=106	=106	=106	=106	=106	=106	=106	=106
2.ryy	2D	2e	2c#	2g	2.r	2.r	2.r	2.r	2.r	2.r	2.r	2.r	2.r	2.r	2.r	2.ryy	4eee
.	.	.	.	.	.	.	.	.	.	.	.	.	.	.	.	.	8ddd
.	.	.	.	.	.	.	.	.	.	.	.	.	.	.	.	.	8ccc#
.	4D	4e	4c#	4g	.	.	.	.	.	.	.	.	.	.	.	.	8bb
.	.	.	.	.	.	.	.	.	.	.	.	.	.	.	.	.	8aa
=107	=107	=107	=107	=107	=107	=107	=107	=107	=107	=107	=107	=107	=107	=107	=107	=107	=107
*	*staff:7	*staff:8	*staff:9	*staff:10	*staff:11	*staff:12	*staff:12	*staff:13	*staff:13	*staff:14	*staff:14	*staff:15	*staff:15	*staff:16	*staff:16	*	*staff:17
2.ryy	2D	2A	2d	2f#	2.r	2.r	2.r	2.r	2.r	2.r	2.r	2.r	2.r	2.r	2.r	2.ryy	4ddd
.	.	.	.	.	.	.	.	.	.	.	.	.	.	.	.	.	8ccc#
.	.	.	.	.	.	.	.	.	.	.	.	.	.	.	.	.	8bb
.	4D	4d	4A	4f#	.	.	.	.	.	.	.	.	.	.	.	.	8aa
.	.	.	.	.	.	.	.	.	.	.	.	.	.	.	.	.	8gg
=108	=108	=108	=108	=108	=108	=108	=108	=108	=108	=108	=108	=108	=108	=108	=108	=108	=108
2.ryy	2D	2d	2A	2f#	2.r	2.r	2.r	2.r	2.r	2.r	2.r	2.r	2.r	2.r	2.r	2.ryy	8ff#
.	.	.	.	.	.	.	.	.	.	.	.	.	.	.	.	.	8bb
.	.	.	.	.	.	.	.	.	.	.	.	.	.	.	.	.	8aa
.	.	.	.	.	.	.	.	.	.	.	.	.	.	.	.	.	8gg
.	4D	4d	4A	4f#	.	.	.	.	.	.	.	.	.	.	.	.	8ff#
.	.	.	.	.	.	.	.	.	.	.	.	.	.	.	.	.	8ee
=109	=109	=109	=109	=109	=109	=109	=109	=109	=109	=109	=109	=109	=109	=109	=109	=109	=109
2.ryy	2D	2d	2A	2f#	2.r	2.r	2.r	2.r	2.r	2.r	2.r	2.r	2.r	2.r	2.r	2.ryy	8dd
.	.	.	.	.	.	.	.	.	.	.	.	.	.	.	.	.	8ff#
.	.	.	.	.	.	.	.	.	.	.	.	.	.	.	.	.	8ee
.	.	.	.	.	.	.	.	.	.	.	.	.	.	.	.	.	8dd
.	4D	4d	4A	4f#	.	.	.	.	.	.	.	.	.	.	.	.	8cc#
.	.	.	.	.	.	.	.	.	.	.	.	.	.	.	.	.	8b
=110	=110	=110	=110	=110	=110	=110	=110	=110	=110	=110	=110	=110	=110	=110	=110	=110	=110
2.ryy	2D	2d	2f#	2a	2.r	2.r	2.r	2.r	2.r	2.r	2.r	2.r	2.r	2.r	2.r	2.ryy	2a
.	4D	4d	4f#	4a	.	.	.	.	.	.	.	.	.	.	.	.	4a
=111	=111	=111	=111	=111	=111	=111	=111	=111	=111	=111	=111	=111	=111	=111	=111	=111	=111
2.ryy	2D	2d	2f#	2a	2.r	2.r	2.r	2.r	2.r	2.r	2.r	2.r	2.r	2.r	2.r	2.ryy	2a
.	4D	4d	4f#	4a	.	.	.	.	.	.	.	.	.	.	.	.	4a
=112	=112	=112	=112	=112	=112	=112	=112	=112	=112	=112	=112	=112	=112	=112	=112	=112	=112
*	*	*	*	*	*	*	*	*	*	*	*	*	*	*	*	*staff:17	*
2.ryy	2D#	2f#	2cn	2a	4AA	2ff#	2aa	2f#	2a	2f#	2f#	2.a	2.ff#	2aa	2ccn	2a	2a
.	.	.	.	.	4r	.	.	.	.	.	.	.	.	.	.	.	.
.	4D#	4f#	4c	4a	4AA	4ff#	4aa	4f#	4a	4f#	4f#	.	.	4aa	4cc	4a	4a
=113	=113	=113	=113	=113	=113	=113	=113	=113	=113	=113	=113	=113	=113	=113	=113	=113	=113
2.ryy	2E	2e	4c#X	4a	2.r	2ee	2ee	2e	2e	2e	2e	4a	4cc#	4aa	4cc#X	4a	4a
.	.	.	4d	4b	.	.	.	.	.	.	.	4b	4dd	4bb	4dd	4b	4b
.	4E	4e	4B	4g#	.	4ee	4ee	4e	4e	4e	4e	4g#	4b	4gg#	4b	4g#	4g#
=114	=114	=114	=114	=114	=114	=114	=114	=114	=114	=114	=114	=114	=114	=114	=114	=114	=114
2.ryy	2AA	2A	2c#	8a	4AA	2a	2ee	2A	2e	2A	2A	8a	8a	8aa	4cc#	8a	8a
.	.	.	.	8cc#	.	.	.	.	.	.	.	8c#	8cc#	8cc#	.	8cc#	8cc#
.	.	.	.	8dd	4r	.	.	.	.	.	.	8d	8dd	8dd	8dd	8dd	8dd
.	.	.	.	8ee	.	.	.	.	.	.	.	8e	8ee	8ee	8ee	8ee	8ee
.	4AA	4A	4c#	8ff#	4AA	4a	4ee	4A	4e	4A	4A	8f#	8ff#	8ff#	8ff#	8ff#	8ff#
.	.	.	.	8gg#	.	.	.	.	.	.	.	8g#	8gg#	8gg#	8gg#	8gg#	8gg#
=115	=115	=115	=115	=115	=115	=115	=115	=115	=115	=115	=115	=115	=115	=115	=115	=115	=115
2ryy	4AA	4A	4c#	4aa	4AA	4a	4ee	4A	4e	4A	4A	4a	4aa	4aa	4aa	4aa	4aa
.	4r	4r	4r	4r	4r	4ryy	4r	4ryy	4r	4r	4r	4ryy	4r	4ryy	4r	4r	4r
=116||	=116||	=116||	=116||	=116||	=116||	=116||	=116||	=116||	=116||	=116||	=116||	=116||	=116||	=116||	=116||	=116||	=116||
*>D	*>D	*>D	*>D	*>D	*>D	*>D	*>D	*>D	*>D	*>D	*>D	*>D	*>D	*>D	*>D	*>D	*>D
*	*staff:1	*staff:2	*staff:3	*staff:4	*	*	*	*	*	*staff:5	*staff:5	*	*	*	*	*staff:6	*staff:6
4ryy	4r	4A#	4c#	4f#	4ryy	4ryy	4ryy	4ryy	4ryy	4r	4r	4ryy	4ryy	4ryy	4ryy	4r	4r
=117	=117	=117	=117	=117	=117	=117	=117	=117	=117	=117	=117	=117	=117	=117	=117	=117	=117
2.ryy	2.r	2A#	2c#	2f#	2.ryy	2.ryy	2.ryy	2.ryy	2.ryy	2.r	2.r	2.ryy	2.ryy	2.ryy	2.ryy	2.r	2.r
.	.	4A#	4c#	4f#	.	.	.	.	.	.	.	.	.	.	.	.	.
=118	=118	=118	=118	=118	=118	=118	=118	=118	=118	=118	=118	=118	=118	=118	=118	=118	=118
2.ryy	2.r	2A#	2c#	2f#	2.ryy	2.ryy	2.ryy	2.ryy	2.ryy	2.r	2.r	2.ryy	2.ryy	2.ryy	2.ryy	2.ryy	4r
.	.	.	.	.	.	.	.	.	.	.	.	.	.	.	.	.	4r
.	.	4A#	4c#	4f#	.	.	.	.	.	.	.	.	.	.	.	.	8eee
.	.	.	.	.	.	.	.	.	.	.	.	.	.	.	.	.	8ddd
=119	=119	=119	=119	=119	=119	=119	=119	=119	=119	=119	=119	=119	=119	=119	=119	=119	=119
2.ryy	2.r	2A#	2c#	2f#	2.ryy	2.ryy	2.ryy	2.ryy	2.ryy	2.ryy	4r	2.ryy	2.ryy	2.ryy	2.ryy	2.ryy	8ccc#
.	.	.	.	.	.	.	.	.	.	.	.	.	.	.	.	.	8bb
.	.	.	.	.	.	.	.	.	.	.	4r	.	.	.	.	.	4aa#'
.	.	4A#	4c#	4f#	.	.	.	.	.	.	8F#	.	.	.	.	.	4r
.	.	.	.	.	.	.	.	.	.	.	8E	.	.	.	.	.	.
=120	=120	=120	=120	=120	=120	=120	=120	=120	=120	=120	=120	=120	=120	=120	=120	=120	=120
2.ryy	2.r	2B	2d	2g	2.ryy	2.ryy	2.ryy	2.ryy	2.ryy	2.ryy	8D	2.ryy	2.ryy	2.ryy	2.ryy	2.ryy	4r
.	.	.	.	.	.	.	.	.	.	.	8C#	.	.	.	.	.	.
.	.	.	.	.	.	.	.	.	.	.	4BB	.	.	.	.	.	4r
.	.	4B	4d	4g	.	.	.	.	.	.	4r	.	.	.	.	.	8ddd
.	.	.	.	.	.	.	.	.	.	.	.	.	.	.	.	.	8ccc#
=121	=121	=121	=121	=121	=121	=121	=121	=121	=121	=121	=121	=121	=121	=121	=121	=121	=121
2.ryy	2.r	2B	2d	2g	2.ryy	2.ryy	2.ryy	2.ryy	2.ryy	2.ryy	4r	2.ryy	2.ryy	2.ryy	2.ryy	2.ryy	8bb
.	.	.	.	.	.	.	.	.	.	.	.	.	.	.	.	.	8aa
.	.	.	.	.	.	.	.	.	.	.	4r	.	.	.	.	.	4ggn
.	.	4B	4d	4g	.	.	.	.	.	.	8G	.	.	.	.	.	4r
.	.	.	.	.	.	.	.	.	.	.	8F#	.	.	.	.	.	.
=122	=122	=122	=122	=122	=122	=122	=122	=122	=122	=122	=122	=122	=122	=122	=122	=122	=122
2.ryy	2.r	2c#	2e	2a	2.ryy	2.ryy	2.ryy	2.ryy	2.ryy	2.ryy	8E	2.ryy	2.ryy	2.ryy	2.ryy	2.ryy	4r
.	.	.	.	.	.	.	.	.	.	.	8D	.	.	.	.	.	.
.	.	.	.	.	.	.	.	.	.	.	4C#	.	.	.	.	.	4r
.	.	4c#	4e	4a	.	.	.	.	.	.	4r	.	.	.	.	.	8eee
.	.	.	.	.	.	.	.	.	.	.	.	.	.	.	.	.	8ddd
=123	=123	=123	=123	=123	=123	=123	=123	=123	=123	=123	=123	=123	=123	=123	=123	=123	=123
2.ryy	2.r	2c#	2e	2a	2.ryy	2.ryy	2.ryy	2.ryy	2.ryy	2.ryy	4r	2.ryy	2.ryy	2.ryy	2.ryy	2.ryy	8ccc#
.	.	.	.	.	.	.	.	.	.	.	.	.	.	.	.	.	8bb
.	.	.	.	.	.	.	.	.	.	.	4r	.	.	.	.	.	4aa
.	.	4c#	4e	4a	.	.	.	.	.	.	8A	.	.	.	.	.	4r
.	.	.	.	.	.	.	.	.	.	.	8G	.	.	.	.	.	.
=124	=124	=124	=124	=124	=124	=124	=124	=124	=124	=124	=124	=124	=124	=124	=124	=124	=124
2.ryy	2.r	2d	2f#	2a	2.ryy	2.ryy	2.ryy	2.ryy	2.ryy	2.ryy	8F#	2.ryy	2.ryy	2.ryy	2.ryy	2.ryy	4r
.	.	.	.	.	.	.	.	.	.	.	8E	.	.	.	.	.	.
.	.	.	.	.	.	.	.	.	.	.	4D	.	.	.	.	.	4r
.	.	4c#	4e	4a	.	.	.	.	.	.	4r	.	.	.	.	.	8aa
.	.	.	.	.	.	.	.	.	.	.	.	.	.	.	.	.	8gg
=125	=125	=125	=125	=125	=125	=125	=125	=125	=125	=125	=125	=125	=125	=125	=125	=125	=125
2.ryy	4r	2d	2f#	2a	2.ryy	2.ryy	2.ryy	2.ryy	2.ryy	2.r	2.r	2.ryy	2.ryy	2.ryy	2.ryy	2.ryy	8ff#
.	.	.	.	.	.	.	.	.	.	.	.	.	.	.	.	.	8ee
.	4r	.	.	.	.	.	.	.	.	.	.	.	.	.	.	.	4dd
.	4C#	4c#	4e	8a	.	.	.	.	.	.	.	.	.	.	.	.	4r
.	.	.	.	8g	.	.	.	.	.	.	.	.	.	.	.	.	.
=126	=126	=126	=126	=126	=126	=126	=126	=126	=126	=126	=126	=126	=126	=126	=126	=126	=126
*	*staff:12	*staff:13	*staff:14	*staff:15	*	*	*	*	*	*staff:16	*staff:16	*	*	*	*	*staff:17	*staff:17
2.ryy	2D	2d	2f#	8f#	2.ryy	2.ryy	2.ryy	2.ryy	2.ryy	2.r	2.r	2.ryy	2.ryy	2.ryy	2.ryy	2.r	2.r
.	.	.	.	8e	.	.	.	.	.	.	.	.	.	.	.	.	.
.	.	.	.	4d	.	.	.	.	.	.	.	.	.	.	.	.	.
.	4r	8a	8aa	8aa	.	.	.	.	.	.	.	.	.	.	.	.	.
.	.	8g	8gg	8gg	.	.	.	.	.	.	.	.	.	.	.	.	.
=127	=127	=127	=127	=127	=127	=127	=127	=127	=127	=127	=127	=127	=127	=127	=127	=127	=127
2.ryy	2.r	8f#	8ff#	8ff#	2.ryy	2.ryy	2.ryy	2.ryy	2.ryy	4r	4r	2.ryy	2.ryy	2.ryy	2.ryy	2.r	2.r
.	.	8e	8ee	8ee	.	.	.	.	.	.	.	.	.	.	.	.	.
.	.	8d	8dd	8dd	.	.	.	.	.	8r	8r	.	.	.	.	.	.
.	.	8f#	8ff#	8ff#	.	.	.	.	.	8f#	8f#	.	.	.	.	.	.
.	.	8e	8ee	8ee	.	.	.	.	.	8e	8e	.	.	.	.	.	.
.	.	8d	8dd	8dd	.	.	.	.	.	8d	8d	.	.	.	.	.	.
=128	=128	=128	=128	=128	=128	=128	=128	=128	=128	=128	=128	=128	=128	=128	=128	=128	=128
2.ryy	4r	8c#	8cc#	8cc#	2.ryy	2.ryy	2.ryy	2.ryy	2.ryy	8c#	8c#	2.ryy	2.ryy	2.ryy	2.ryy	4r	4r
.	.	8B	8b	8b	.	.	.	.	.	8B	8B	.	.	.	.	.	.
.	8d	8d	8dd	8dd	.	.	.	.	.	8d	8d	.	.	.	.	8ddd	8ddd
.	8c#	8c#	8cc#	8cc#	.	.	.	.	.	8c#	8c#	.	.	.	.	8ccc#	8ccc#
.	8B	8B	8b	8b	.	.	.	.	.	8B	8B	.	.	.	.	8bb	8bb
.	8A	8A	8a	8a	.	.	.	.	.	8A	8A	.	.	.	.	8aa	8aa
=129	=129	=129	=129	=129	=129	=129	=129	=129	=129	=129	=129	=129	=129	=129	=129	=129	=129
2.ryy	8G	8G	8g	8g	2.ryy	2.ryy	2.ryy	2.ryy	2.ryy	8G	8G	2.ryy	2.ryy	2.ryy	2.ryy	8gg	8gg
.	8B	8b	8b	8b	.	.	.	.	.	8B	8B	.	.	.	.	8bb	8bb
.	8A	8a	8a	8a	.	.	.	.	.	8A	8A	.	.	.	.	8aa	8aa
.	8G	8g	8g	8g	.	.	.	.	.	8G	8G	.	.	.	.	8gg	8gg
.	8F#	8f#	8f#	8f#	.	.	.	.	.	8F#	8F#	.	.	.	.	8ff#	8ff#
.	8E	8e	8e	8e	.	.	.	.	.	8E	8E	.	.	.	.	8ee	8ee
=130	=130	=130	=130	=130	=130	=130	=130	=130	=130	=130	=130	=130	=130	=130	=130	=130	=130
2.ryy	8G	8g	8g	8g	2.ryy	2.ryy	2.ryy	2.ryy	2.ryy	8G	8G	2.ryy	2.ryy	2.ryy	2.ryy	8gg	8gg
.	8F#	8f#	8f#	8f#	.	.	.	.	.	8F#	8F#	.	.	.	.	8ff#	8ff#
.	8E	8e	8e	8e	.	.	.	.	.	8E	8E	.	.	.	.	8ee	8ee
.	8D	8d	8d	8d	.	.	.	.	.	8D	8D	.	.	.	.	8dd	8dd
.	8C#	8c#	8c#	8c#	.	.	.	.	.	8C#	8C#	.	.	.	.	8cc#	8cc#
.	8BB	8B	8B	8B	.	.	.	.	.	8BB	8BB	.	.	.	.	8b	8b
=131	=131	=131	=131	=131	=131	=131	=131	=131	=131	=131	=131	=131	=131	=131	=131	=131	=131
2.ryy	4AA	4A	4A	8A'	2.ryy	2.ryy	2.ryy	2.ryy	2.ryy	4AA	4AA	2.ryy	2.ryy	2.ryy	2.ryy	4a	4a
.	.	.	.	8g	.	.	.	.	.	.	.	.	.	.	.	.	.
.	4r	4r	4r	8f#	.	.	.	.	.	4r	4r	.	.	.	.	4r	4r
.	.	.	.	8e	.	.	.	.	.	.	.	.	.	.	.	.	.
.	4r	4r	4r	8b	.	.	.	.	.	4r	4r	.	.	.	.	4r	4r
.	.	.	.	8a	.	.	.	.	.	.	.	.	.	.	.	.	.
=132	=132	=132	=132	=132	=132	=132	=132	=132	=132	=132	=132	=132	=132	=132	=132	=132	=132
2.ryy	4AA	4g	4c#	8g	2.ryy	2.ryy	2.ryy	2.ryy	2.ryy	2.r	2.r	2.ryy	2.ryy	2.ryy	2.ryy	2.r	2.r
.	.	.	.	8ee	.	.	.	.	.	.	.	.	.	.	.	.	.
.	4r	4r	4r	8dd	.	.	.	.	.	.	.	.	.	.	.	.	.
.	.	.	.	8cc#	.	.	.	.	.	.	.	.	.	.	.	.	.
.	4r	4r	4r	8gg	.	.	.	.	.	.	.	.	.	.	.	.	.
.	.	.	.	8ff#	.	.	.	.	.	.	.	.	.	.	.	.	.
=133	=133	=133	=133	=133	=133	=133	=133	=133	=133	=133	=133	=133	=133	=133	=133	=133	=133
2.ryy	4AA	4g	4c#	8ee	2.ryy	2.ryy	2.ryy	2.ryy	2.ryy	2.r	2.r	2.ryy	2.ryy	2.ryy	2.ryy	2.r	2.r
.	.	.	.	8gg	.	.	.	.	.	.	.	.	.	.	.	.	.
.	4r	4r	4r	8bb	.	.	.	.	.	.	.	.	.	.	.	.	.
.	.	.	.	8aa	.	.	.	.	.	.	.	.	.	.	.	.	.
.	4r	4r	4r	8gg	.	.	.	.	.	.	.	.	.	.	.	.	.
.	.	.	.	8ff#	.	.	.	.	.	.	.	.	.	.	.	.	.
=134	=134	=134	=134	=134	=134	=134	=134	=134	=134	=134	=134	=134	=134	=134	=134	=134	=134
2.ryy	4AA	4g	4c#	8ee	2.ryy	2.ryy	2.ryy	2.ryy	2.ryy	2.r	2.r	2.ryy	2.ryy	2.ryy	2.ryy	2.r	2.r
.	.	.	.	8gg	.	.	.	.	.	.	.	.	.	.	.	.	.
.	4r	4r	4r	8bb	.	.	.	.	.	.	.	.	.	.	.	.	.
.	.	.	.	8aa	.	.	.	.	.	.	.	.	.	.	.	.	.
.	4r	4r	4r	8gg	.	.	.	.	.	.	.	.	.	.	.	.	.
.	.	.	.	8ff#	.	.	.	.	.	.	.	.	.	.	.	.	.
=135	=135	=135	=135	=135	=135	=135	=135	=135	=135	=135	=135	=135	=135	=135	=135	=135	=135
*	*staff:1	*staff:2	*staff:3	*staff:4	*staff:5	*staff:6	*staff:6	*staff:7	*staff:7	*staff:8	*staff:8	*staff:9	*staff:9	*staff:10	*staff:10	*staff:11	*staff:11
2.ryy	4AA	4g	4c#	8ee	2.r	2.r	2.r	2.r	2.r	2.r	2.r	2.r	2.r	2.r	2.r	2.r	2.r
.	.	.	.	8gg	.	.	.	.	.	.	.	.	.	.	.	.	.
.	4r	4r	4r	8bb	.	.	.	.	.	.	.	.	.	.	.	.	.
.	.	.	.	8aa	.	.	.	.	.	.	.	.	.	.	.	.	.
.	4r	4r	4r	8gg	.	.	.	.	.	.	.	.	.	.	.	.	.
.	.	.	.	8ff#	.	.	.	.	.	.	.	.	.	.	.	.	.
=136	=136	=136	=136	=136	=136	=136	=136	=136	=136	=136	=136	=136	=136	=136	=136	=136	=136
2.ryy	4AA	4g	4c#	8ee	2.r	2.r	2.r	2.r	2.r	2.r	2.r	2.r	2.r	2.r	2.r	2.r	2.r
.	.	.	.	8gg	.	.	.	.	.	.	.	.	.	.	.	.	.
.	4r	4r	4r	8bb	.	.	.	.	.	.	.	.	.	.	.	.	.
.	.	.	.	8aa	.	.	.	.	.	.	.	.	.	.	.	.	.
.	4r	4r	4r	8gg	.	.	.	.	.	.	.	.	.	.	.	.	.
.	.	.	.	8ff#	.	.	.	.	.	.	.	.	.	.	.	.	.
=137	=137	=137	=137	=137	=137	=137	=137	=137	=137	=137	=137	=137	=137	=137	=137	=137	=137
2.ryy	4AA	4g	4c#	8ee	2.r	2.r	2.r	2.r	2.r	2.r	2.r	2.r	2.r	2.r	2.r	2.r	2.r
.	.	.	.	8gg	.	.	.	.	.	.	.	.	.	.	.	.	.
.	4r	4r	4r	8bb	.	.	.	.	.	.	.	.	.	.	.	.	.
.	.	.	.	8aa	.	.	.	.	.	.	.	.	.	.	.	.	.
.	4r	4r	4r	8gg	.	.	.	.	.	.	.	.	.	.	.	.	.
.	.	.	.	8ff#	.	.	.	.	.	.	.	.	.	.	.	.	.
=138	=138	=138	=138	=138	=138	=138	=138	=138	=138	=138	=138	=138	=138	=138	=138	=138	=138
2.ryy	2.r	2.r	2.r	8ee	2.r	2.r	2.r	2.r	2.r	2.r	2.r	2.r	2.r	2.r	2.r	2.r	2.r
.	.	.	.	8gg	.	.	.	.	.	.	.	.	.	.	.	.	.
.	.	.	.	8bb	.	.	.	.	.	.	.	.	.	.	.	.	.
.	.	.	.	8aa	.	.	.	.	.	.	.	.	.	.	.	.	.
.	.	.	.	8gg	.	.	.	.	.	.	.	.	.	.	.	.	.
.	.	.	.	8ff#	.	.	.	.	.	.	.	.	.	.	.	.	.
=139	=139	=139	=139	=139	=139	=139	=139	=139	=139	=139	=139	=139	=139	=139	=139	=139	=139
2.ryy	2.r	2.r	2.r	8ee	2.r	2.r	2.r	2.r	2.r	2.r	2.r	2.r	2.r	2.r	2.r	2.r	2.r
.	.	.	.	8gg	.	.	.	.	.	.	.	.	.	.	.	.	.
.	.	.	.	8bb	.	.	.	.	.	.	.	.	.	.	.	.	.
.	.	.	.	8aa	.	.	.	.	.	.	.	.	.	.	.	.	.
.	.	.	.	8gg	.	.	.	.	.	.	.	.	.	.	.	.	.
.	.	.	.	8ff#	.	.	.	.	.	.	.	.	.	.	.	.	.
=140	=140	=140	=140	=140	=140	=140	=140	=140	=140	=140	=140	=140	=140	=140	=140	=140	=140
2.ryy	2.r	4r	4r	4ee	2.r	2.r	2.r	2.r	2.r	2.r	2.r	2.r	2.r	2.r	2.r	2.r	2.r
.	.	4r	4r	4ee#	.	.	.	.	.	.	.	.	.	.	.	.	.
.	.	4d	4a	4ff#	.	.	.	.	.	.	.	.	.	.	.	.	.
=141	=141	=141	=141	=141	=141	=141	=141	=141	=141	=141	=141	=141	=141	=141	=141	=141	=141
2.ryy	2.r	2d	2a	2ff#	2.r	2.r	2.r	2.r	2.r	2.r	2.r	2.r	2.r	2.r	2.r	2.r	2.r
.	.	4d	4a	4ff#	.	.	.	.	.	.	.	.	.	.	.	.	.
=142	=142	=142	=142	=142	=142	=142	=142	=142	=142	=142	=142	=142	=142	=142	=142	=142	=142
2.ryy	4r	2d	2a	2ff#	4r	4ryy	4r	4ryy	4r	4r	4r	4ryy	4r	4r	4r	4r	4r
.	4r	.	.	.	4r	4ryy	4r	4ryy	4r	4r	4r	4ryy	4r	4r	4r	4r	4r
.	8D	4a	4dd	4ff#	4D	4dd	4ff#	4d	4a	8D	8D	4dd	4ff#	8f#	8f#	4ddd	4ddd
.	8E	.	.	.	.	.	.	.	.	8E	8E	.	.	8g	8g	.	.
=143	=143	=143	=143	=143	=143	=143	=143	=143	=143	=143	=143	=143	=143	=143	=143	=143	=143
2.ryy	8F#	4a'	4dd'	4ff#'	4D	4dd	4ff#	4d	4a	8F#	8F#	4dd	4ff#	8a	8a	4ddd	4ddd
.	8G	.	.	.	.	.	.	.	.	8G	8G	.	.	8b	8b	.	.
.	8A	4a'	4dd'	4ff#'	4D	4dd	4ff#	4d	4a	8A	8A	4dd	4ff#	8cc#	8cc#	4ddd	4ddd
.	8B	.	.	.	.	.	.	.	.	8B	8B	.	.	8dd	8dd	.	.
.	8c#	4a'	4dd'	4ff#'	4D	4dd	4ff#	4d	4a	8c#	8c#	4dd	4ff#	8ee	8ee	4ddd	4ddd
.	8d	.	.	.	.	.	.	.	.	8d	8d	.	.	8ff#	8ff#	.	.
=144	=144	=144	=144	=144	=144	=144	=144	=144	=144	=144	=144	=144	=144	=144	=144	=144	=144
2.ryy	2e	2a	2cc#	2gg	4AA	4ee	4gg	4A	4a	2e	2e	2cc#	2gg	2gg	2gg	2ccc#	2ccc#
.	.	.	.	.	4r	4ryy	4r	4ryy	4r	.	.	.	.	.	.	.	.
.	8AA	4A	4cc#	4gg	4AA	4a	4ee	4A	4e	8AA	8AA	4cc#	4gg	8cc#	8cc#	4ccc#	4ccc#
.	8BB	.	.	.	.	.	.	.	.	8BB	8BB	.	.	8dd	8dd	.	.
=145	=145	=145	=145	=145	=145	=145	=145	=145	=145	=145	=145	=145	=145	=145	=145	=145	=145
*	*staff:8	*staff:9	*staff:10	*staff:11	*staff:12	*staff:13	*staff:13	*staff:14	*staff:14	*staff:15	*staff:15	*staff:16	*staff:16	*staff:17	*staff:17	*staff:18	*staff:18
2.ryy	8C#	4A	4cc#	4gg	4AA	4a	4ee	4A	4e	8C#	8C#	4cc#	4gg	8ee	8ee	4ccc#	4ccc#
.	8D	.	.	.	.	.	.	.	.	8D	8D	.	.	8ff#	8ff#	.	.
.	8E	4A	4cc#	4gg	4AA	4a	4ee	4A	4e	8E	8E	4cc#	4gg	8gg	8gg	4ccc#	4ccc#
.	8F#	.	.	.	.	.	.	.	.	8F#	8F#	.	.	8aa	8aa	.	.
.	8G	4A	4cc#	4gg	4AA	4a	4ee	4A	4e	8G	8G	4cc#	4gg	8bb	8bb	4ccc#	4ccc#
.	8A	.	.	.	.	.	.	.	.	8A	8A	.	.	8ccc#	8ccc#	.	.
=146	=146	=146	=146	=146	=146	=146	=146	=146	=146	=146	=146	=146	=146	=146	=146	=146	=146
2.ryy	2B	2B	2dd	2ff#	4D	4f#	4dd	4F#	4d	2B	2B	2dd	2ff#	2ddd	2ddd	2ddd	2ddd
.	.	.	.	.	4r	4ryy	4r	4ryy	4r	.	.	.	.	.	.	.	.
.	8GG	4g	4dd	4bb	4D	4d	4dd	4D	4d	8GG	8GG	4b	4gg	4bb	4bb	4bb	4bb
.	8AA	.	.	.	.	.	.	.	.	8AA	8AA	.	.	.	.	.	.
=147	=147	=147	=147	=147	=147	=147	=147	=147	=147	=147	=147	=147	=147	=147	=147	=147	=147
2.ryy	8BB	4g	4dd	4bb	4D	4d	4dd	4D	4d	8BB	8BB	4b	4gg	4bb	4bb	4bb	4bb
.	8C#	.	.	.	.	.	.	.	.	8C#	8C#	.	.	.	.	.	.
.	8D	4g	4dd	4bb	4D	4d	4dd	4D	4d	8D	8D	4b	4gg	4bb	4bb	4bb	4bb
.	8E	.	.	.	.	.	.	.	.	8E	8E	.	.	.	.	.	.
.	8F#	4g	4dd	4bb	4D	4d	4dd	4D	4d	8F#	8F#	4b	4gg	4bb	4bb	4bb	4bb
.	8G	.	.	.	.	.	.	.	.	8G	8G	.	.	.	.	.	.
=148	=148	=148	=148	=148	=148	=148	=148	=148	=148	=148	=148	=148	=148	=148	=148	=148	=148
2.ryy	8F#	2.f#	2.dd	2aa	4D	4d	4dd	4D	4d	8F#	8F#	2dd	2dd	4aa	4aa	2aa	2aa
.	8G	.	.	.	.	.	.	.	.	8G	8G	.	.	.	.	.	.
.	8A	.	.	.	4r	4ryy	4r	4ryy	4r	8A	8A	.	.	4r	4r	.	.
.	8B	.	.	.	.	.	.	.	.	8B	8B	.	.	.	.	.	.
.	8c#	.	.	4ff#	4r	4ryy	4r	4ryy	4r	8c#	8c#	4ryy	4r	4r	4r	4ff#	4ff#
.	8d	.	.	.	.	.	.	.	.	8d	8d	.	.	.	.	.	.
=149	=149	=149	=149	=149	=149	=149	=149	=149	=149	=149	=149	=149	=149	=149	=149	=149	=149
2.ryy	4G	4g	4b	8dd#	2.r	2.r	2.r	2.r	2.r	4G	4G	2.r	2.r	2.r	2.r	8dd#	8dd#
.	.	.	.	8ee	.	.	.	.	.	.	.	.	.	.	.	8ee	8ee
.	4r	4r	4r	8ff#	.	.	.	.	.	4r	4r	.	.	.	.	8ff#	8ff#
.	.	.	.	8gg	.	.	.	.	.	.	.	.	.	.	.	8gg	8gg
.	4r	4r	4r	8aa	.	.	.	.	.	4r	4r	.	.	.	.	8aa	8aa
.	.	.	.	8bb	.	.	.	.	.	.	.	.	.	.	.	8bb	8bb
=150	=150	=150	=150	=150	=150	=150	=150	=150	=150	=150	=150	=150	=150	=150	=150	=150	=150
2.ryy	4A	4d	4f#	8cc#	2.r	2.r	2.r	2.r	2.r	4A	4A	2.r	2.r	2.r	2.r	8cc#	8cc#
.	.	.	.	8ddn	.	.	.	.	.	.	.	.	.	.	.	8ddn	8ddn
.	4r	4r	4r	8ee	.	.	.	.	.	4r	4r	.	.	.	.	8ee	8ee
.	.	.	.	8ff#	.	.	.	.	.	.	.	.	.	.	.	8ff#	8ff#
.	4r	4r	4r	8gg	.	.	.	.	.	4r	4r	.	.	.	.	8gg	8gg
.	.	.	.	8aa	.	.	.	.	.	.	.	.	.	.	.	8aa	8aa
=151	=151	=151	=151	=151	=151	=151	=151	=151	=151	=151	=151	=151	=151	=151	=151	=151	=151
2.ryy	4A	4E	4c#	8g#	2.r	2.r	2.r	2.r	2.r	4A	4A	2.r	2.r	2.r	2.r	8g#	8g#
.	.	.	.	8a	.	.	.	.	.	.	.	.	.	.	.	8a	8a
.	4r	4r	4r	8b	.	.	.	.	.	4r	4r	.	.	.	.	8b	8b
.	.	.	.	8cc#	.	.	.	.	.	.	.	.	.	.	.	8cc#	8cc#
.	4r	4r	4r	8dd	.	.	.	.	.	4r	4r	.	.	.	.	8dd	8dd
.	.	.	.	8ee	.	.	.	.	.	.	.	.	.	.	.	8ee	8ee
=152	=152	=152	=152	=152	=152	=152	=152	=152	=152	=152	=152	=152	=152	=152	=152	=152	=152
2.ryy	2.r	2.r	2.r	2.r	2.r	2.r	2.r	2.r	2.r	2.r	2.r	2.r	2.r	2.r	2.r	2.r	2.r
=153	=153	=153	=153	=153	=153	=153	=153	=153	=153	=153	=153	=153	=153	=153	=153	=153	=153
2.ryy	2.r	4r	4r	4r	2.r	2.r	2.r	4ryy	4r	2.r	2.r	2.r	2.r	2.r	2.r	2.r	2.r
.	.	4r	4r	4r	.	.	.	4ryy	4r	.	.	.	.	.	.	.	.
.	.	4D	4A	4f#	.	.	.	4D	4A	.	.	.	.	.	.	.	.
=154	=154	=154	=154	=154	=154	=154	=154	=154	=154	=154	=154	=154	=154	=154	=154	=154	=154
2.ryy	2.r	2D	2A	2f#	2.r	2.r	2.r	2D	2A	2.r	2.r	2.r	2.r	2.r	2.r	2.r	2.r
.	.	4D	4A	4f#	.	.	.	4D	4A	.	.	.	.	.	.	.	.
=155	=155	=155	=155	=155	=155	=155	=155	=155	=155	=155	=155	=155	=155	=155	=155	=155	=155
*	*staff:1	*staff:2	*staff:3	*staff:4	*	*	*	*staff:5	*staff:5	*staff:6	*staff:6	*	*	*	*	*staff:7	*staff:7
2.ryy	4r	2D	2A	2f#	2.ryy	2.ryy	2.ryy	2D	2A	4r	4r	2.ryy	2.ryy	2.ryy	2.ryy	2.r	2.r
.	4r	.	.	.	.	.	.	.	.	4r	4r	.	.	.	.	.	.
.	4cn	4D	4A	4f#	.	.	.	4D	4A	4cn	4cn	.	.	.	.	.	.
=156	=156	=156	=156	=156	=156	=156	=156	=156	=156	=156	=156	=156	=156	=156	=156	=156	=156
2.ryy	2cn	2D	2A	2f#	2.ryy	2.ryy	2.ryy	2D	2A	2cn	2cn	2.ryy	2.ryy	2.ryy	2.ryy	2.ryy	4r
.	.	.	.	.	.	.	.	.	.	.	.	.	.	.	.	.	4r
.	4c	4D	4A	4f#	.	.	.	4D	4A	4c	4c	.	.	.	.	.	8eee
.	.	.	.	.	.	.	.	.	.	.	.	.	.	.	.	.	8ddd
=157	=157	=157	=157	=157	=157	=157	=157	=157	=157	=157	=157	=157	=157	=157	=157	=157	=157
2.ryy	2cn	2D	2A	2f#	2.ryy	2.ryy	2.ryy	2D	2A	2cn	2cn	2.ryy	2.ryy	2.ryy	2.ryy	2.ryy	8cccn
.	.	.	.	.	.	.	.	.	.	.	.	.	.	.	.	.	8bb
.	.	.	.	.	.	.	.	.	.	.	.	.	.	.	.	.	8aa
.	.	.	.	.	.	.	.	.	.	.	.	.	.	.	.	.	8gg
.	4c	4D	4A	4f#	.	.	.	4D	4A	4c	4c	.	.	.	.	.	8ff#
.	.	.	.	.	.	.	.	.	.	.	.	.	.	.	.	.	8aa
*	*	*	*	*	*	*	*	*clefF4	*clefF4	*	*	*	*	*	*	*	*
=158	=158	=158	=158	=158	=158	=158	=158	=158	=158	=158	=158	=158	=158	=158	=158	=158	=158
2.ryy	4B	2D	2B	2g	2.ryy	2.ryy	2.ryy	2.DDD	[2.DD	4B	4B	2.ryy	2.ryy	2.ryy	2.ryy	2.ryy	4gg
.	4r	.	.	.	.	.	.	.	.	4r	4r	.	.	.	.	.	4r
.	4r	4D	4B	4g	.	.	.	.	.	4r	4r	.	.	.	.	.	8bb
.	.	.	.	.	.	.	.	.	.	.	.	.	.	.	.	.	8aa
=159	=159	=159	=159	=159	=159	=159	=159	=159	=159	=159	=159	=159	=159	=159	=159	=159	=159
2.ryy	4AA	2E	2c#	2g	2.ryy	2.ryy	2.ryy	2.DDD	2.DD_	4AA	4AA	2.ryy	2.ryy	2.ryy	2.ryy	2.ryy	8gg
.	.	.	.	.	.	.	.	.	.	.	.	.	.	.	.	.	8ff#
.	4r	.	.	.	.	.	.	.	.	4r	4r	.	.	.	.	.	8ee
.	.	.	.	.	.	.	.	.	.	.	.	.	.	.	.	.	8dd
.	4r	4E	4c#	4g	.	.	.	.	.	4r	4r	.	.	.	.	.	8cc#X
.	.	.	.	.	.	.	.	.	.	.	.	.	.	.	.	.	8ee
=160	=160	=160	=160	=160	=160	=160	=160	=160	=160	=160	=160	=160	=160	=160	=160	=160	=160
2.ryy	4D	2F#	2d	2f#	2.ryy	2.ryy	2.ryy	2.DDD	2.DD_	4r	4r	2.ryy	2.ryy	2.ryy	2.ryy	2.ryy	4dd
.	4r	.	.	.	.	.	.	.	.	4r	4r	.	.	.	.	.	4r
.	4r	4A	4d	8ee	.	.	.	.	.	8e	8e	.	.	.	.	.	4r
.	.	.	.	8dd	.	.	.	.	.	8d	8d	.	.	.	.	.	.
=161	=161	=161	=161	=161	=161	=161	=161	=161	=161	=161	=161	=161	=161	=161	=161	=161	=161
2.ryy	4D	2cn	2f#	8ccn	2.ryy	2.ryy	2.ryy	2.DDD	2.DD_	8cn	8cn	2.ryy	2.ryy	2.ryy	2.ryy	2.ryy	2.ff#
.	.	.	.	8b	.	.	.	.	.	8B	8B	.	.	.	.	.	.
.	4r	.	.	8a	.	.	.	.	.	8A	8A	.	.	.	.	.	.
.	.	.	.	8g	.	.	.	.	.	8G	8G	.	.	.	.	.	.
.	4r	4c	4f#	8f#	.	.	.	.	.	8F#	8F#	.	.	.	.	.	.
.	.	.	.	8a	.	.	.	.	.	8A	8A	.	.	.	.	.	.
=162	=162	=162	=162	=162	=162	=162	=162	=162	=162	=162	=162	=162	=162	=162	=162	=162	=162
2.ryy	4D	2B	2g	4g	2.ryy	2.ryy	2.ryy	2.DDD	2.DD_	4G	4G	2.ryy	2.ryy	2.ryy	2.ryy	2.ryy	4gg
.	4r	.	.	4r	.	.	.	.	.	4r	4r	.	.	.	.	.	4r
.	4r	4B	4g	8b	.	.	.	.	.	8B	8B	.	.	.	.	.	4r
.	.	.	.	8a	.	.	.	.	.	8A	8A	.	.	.	.	.	.
=163	=163	=163	=163	=163	=163	=163	=163	=163	=163	=163	=163	=163	=163	=163	=163	=163	=163
2.ryy	4D	2E	2c#	8g	2.ryy	2.ryy	2.ryy	2.DDD	2.DD_	8G	8G	2.ryy	2.ryy	2.ryy	2.ryy	2.ryy	2.ccc#
.	.	.	.	8f#	.	.	.	.	.	8F#	8F#	.	.	.	.	.	.
.	4r	.	.	8e	.	.	.	.	.	8E	8E	.	.	.	.	.	.
.	.	.	.	8d	.	.	.	.	.	8D	8D	.	.	.	.	.	.
.	4r	4G	4c#	8c#X	.	.	.	.	.	8C#X	8C#X	.	.	.	.	.	.
.	.	.	.	8e	.	.	.	.	.	8E	8E	.	.	.	.	.	.
=164	=164	=164	=164	=164	=164	=164	=164	=164	=164	=164	=164	=164	=164	=164	=164	=164	=164
2ryy	4D	4F#	4d	4d	2ryy	2ryy	2ryy	4DDD	4DD]	4D	4D	2ryy	2ryy	2ryy	2ryy	2ryy	4ddd
.	4r	4r	4r	4r	.	.	.	4ryy	4r	4r	4r	.	.	.	.	.	4r
==165:|	==165:|	==165:|	==165:|	==165:|	==165:|	==165:|	==165:|	==165:|	==165:|	==165:|	==165:|	==165:|	==165:|	==165:|	==165:|	==165:|	==165:|
*-	*-	*-	*-	*-	*-	*-	*-	*-	*-	*-	*-	*-	*-	*-	*-	*-	*-
